!!!system-decoration: \{(s1,s2)\}s3,s4\
!!!OTL: A_FLOWER_IS_A_LOVESOME_THING
**kern	**kern	**kern	**kern	**mxhm
*part3	*part2	*part1	*part1	*part1
*staff4	*staff3	*staff2	*staff1	*
*I'Contrabass'	*I'Drumset'	*'IPiano'	*	*
*I'Cb.	*I'D. Set	*I'Pno.	*	*
*clefF4	*clefX	*clefF4	*clefG2	*
*k[b-e-a-]	*k[]	*k[b-e-a-]	*k[b-e-a-]	*
*Db: 	*Db:	*Db:	*Db:	*Db:
*M4/4	*M4/4	*M4/4	*M4/4	*
*MM80	*MM80	*MM80	*MM80	*
*SSSwing	*SSSwing	*SSSwing	*SSSwing	*
=1	=1	=1	=1	=1
*	*^	*^	*	*
*	*head:regular	*head:x	*	*	*	*
!	!	!	!	!	!LO:TX:a:t=[quarter]=80.0	!
!	!	!	!	!	!LO:TX:a:t=Swing	!
6BBB	4re	16Ree/	4D# B	1ryy	4f# b ff#	B 
.	.	16ree	.	.	.	.
.	.	.	.	.	.	.
.	.	8ree	.	.	.	.
12r	.	.	.	.	.	.
.	.	.	.	.	.	.
8.BBB	4re	16Ree/	4r	.	4r	.
.	.	16ree	.	.	.	.
.	.	.	.	.	.	.
.	.	8ree	.	.	.	.
.	.	.	.	.	.	.
16r	.	.	.	.	.	.
4BBB	4re	16Ree/	4F# B	.	4d# b ff# bb	.
.	.	16ree	.	.	.	.
.	.	.	.	.	.	.
.	.	8ree	.	.	.	.
.	.	.	.	.	.	.
.	.	.	.	.	.	.
4BBB	4re	16Ree/	4r	.	4r	.
.	.	16ree	.	.	.	.
.	.	.	.	.	.	.
.	.	8ree	.	.	.	.
.	.	.	.	.	.	.
.	.	.	.	.	.	.
=2	=2	=2	=2	=2	=2	=2
*	*head:regular	*head:x	*	*	*	*
8BBB	4re	16Ree/	4r	1ryy	4r	B 
.	.	16ree	.	.	.	.
.	.	.	.	.	.	.
8r	.	8ree	.	.	.	.
.	.	.	.	.	.	.
.	.	.	.	.	.	.
4FF#	4re	16Ree/	4r	.	4r	.
.	.	16ree	.	.	.	.
.	.	.	.	.	.	.
.	.	8ree	.	.	.	.
.	.	.	.	.	.	.
.	.	.	.	.	.	.
4FF#	4re	16Ree/	4F# B	.	4d# b ff# bb	.
.	.	16ree	.	.	.	.
.	.	.	.	.	.	.
.	.	8ree	.	.	.	.
.	.	.	.	.	.	.
.	.	.	.	.	.	.
6BB	4re	16Ree/	4r	.	4r	.
.	.	16ree	.	.	.	.
.	.	.	.	.	.	.
.	.	8ree	.	.	.	.
12r	.	.	.	.	.	.
.	.	.	.	.	.	.
=3	=3	=3	=3	=3	=3	=3
*	*head:regular	*head:x	*	*	*	*
4BB	4re	16Ree/	4F# B	1ryy	4d# f#	B 
.	.	16ree	.	.	.	.
.	.	.	.	.	.	.
.	.	8ree	.	.	.	.
.	.	.	.	.	.	.
.	.	.	.	.	.	.
4FF#	4re	16Ree/	4r	.	4r	.
.	.	16ree	.	.	.	.
.	.	.	.	.	.	.
.	.	8ree	.	.	.	.
.	.	.	.	.	.	.
.	.	.	.	.	.	.
4BBB	4re	16Ree/	6D# F# B	.	6f#	.
.	.	16ree	.	.	.	.
.	.	.	.	.	.	.
.	.	8ree	.	.	.	.
.	.	.	12r	.	12r	.
.	.	.	.	.	.	.
4FFF#	4re	16Ree/	4r	.	4r	.
.	.	16ree	.	.	.	.
.	.	.	.	.	.	.
.	.	8ree	.	.	.	.
.	.	.	.	.	.	.
.	.	.	.	.	.	.
=4	=4	=4	=4	=4	=4	=4
*	*head:regular	*head:x	*	*	*	*
4DD#	4re	16Ree/	6D# B	1ryy	6f# b ff#	B 
.	.	16ree	.	.	.	.
.	.	.	.	.	.	.
.	.	8ree	.	.	.	.
.	.	.	12r	.	12r	.
.	.	.	.	.	.	.
4BBB	4re	16Ree/	4r	.	4r	.
.	.	16ree	.	.	.	.
.	.	.	.	.	.	.
.	.	8ree	.	.	.	.
.	.	.	.	.	.	.
.	.	.	.	.	.	.
4BBB	4re	16Ree/	4r	.	4r	.
.	.	16ree	.	.	.	.
.	.	.	.	.	.	.
.	.	8ree	.	.	.	.
.	.	.	.	.	.	.
.	.	.	.	.	.	.
4FFF#	4re	16Ree/	4r	.	4r	.
.	.	16ree	.	.	.	.
.	.	.	.	.	.	.
.	.	8ree	.	.	.	.
.	.	.	.	.	.	.
.	.	.	.	.	.	.
=5	=5	=5	=5	=5	=5	=5
*	*head:regular	*head:x	*	*	*	*
4AAA#	4re	12Ree/	4r	1ryy	4r	B 
.	.	.	.	.	.	.
.	.	12ree	.	.	.	.
.	.	.	.	.	.	.
.	.	12ree	.	.	.	.
.	.	.	.	.	.	.
4GGG#	4re	12Ree/	4r	.	4r	.
.	.	.	.	.	.	.
.	.	12ree	.	.	.	.
.	.	.	.	.	.	.
.	.	12ree	.	.	.	.
.	.	.	.	.	.	.
4GGG	4re	16Ree/	4D# G A#	.	4d#	E 
.	.	16ree	.	.	.	.
.	.	.	.	.	.	.
.	.	8ree	.	.	.	.
.	.	.	.	.	.	.
.	.	.	.	.	.	.
6DD#	4re	12Ree/	4r	.	4r	.
.	.	.	.	.	.	.
.	.	12ree	.	.	.	.
.	.	.	.	.	.	.
12r	.	12ree	.	.	.	.
.	.	.	.	.	.	.
=6	=6	=6	=6	=6	=6	=6
*	*head:regular	*head:x	*	*	*	*
4DD#	4re	12Ree/	4r	1ryy	4r	A 
.	.	.	.	.	.	.
.	.	12ree	.	.	.	.
.	.	.	.	.	.	.
.	.	12ree	.	.	.	.
.	.	.	.	.	.	.
4GG#	4re	12Ree/	4r	.	4r	.
.	.	.	.	.	.	.
.	.	12ree	.	.	.	.
.	.	.	.	.	.	.
.	.	12ree	.	.	.	.
.	.	.	.	.	.	.
4CC#	4re	12Ree/	4C# F G#	.	4c#	D 
.	.	.	.	.	.	.
.	.	12ree	.	.	.	.
.	.	.	.	.	.	.
.	.	12ree	.	.	.	.
.	.	.	.	.	.	.
8.CC#	4re	12Ree/	4r	.	4r	.
.	.	.	.	.	.	.
.	.	12ree	.	.	.	.
.	.	.	.	.	.	.
.	.	12ree	.	.	.	.
16r	.	.	.	.	.	.
=7	=7	=7	=7	=7	=7	=7
*	*head:regular	*head:x	*	*	*	*
8.DD	4re	12Ree/	4r	1ryy	4r	D 
.	.	.	.	.	.	.
.	.	12ree	.	.	.	.
.	.	.	.	.	.	.
.	.	12ree	.	.	.	.
16r	.	.	.	.	.	.
4DD	4re	16Ree/	4r	.	4r	.
.	.	16ree	.	.	.	.
.	.	.	.	.	.	.
.	.	8ree	.	.	.	.
.	.	.	.	.	.	.
.	.	.	.	.	.	.
8DD#	4re	12Ree/	4D# G A#	.	4d#	E 
.	.	.	.	.	.	.
.	.	12ree	.	.	.	.
8r	.	.	.	.	.	.
.	.	12ree	.	.	.	.
.	.	.	.	.	.	.
4DD	4re	16Ree/	4r	.	4r	D 
.	.	16ree	.	.	.	.
.	.	.	.	.	.	.
.	.	8ree	.	.	.	.
.	.	.	.	.	.	.
.	.	.	.	.	.	.
=8	=8	=8	=8	=8	=8	=8
*	*head:regular	*head:x	*	*	*	*
4CC#	4re	12Ree/	4C# F G#	1ryy	4c#	D 
.	.	.	.	.	.	.
.	.	12ree	.	.	.	.
.	.	.	.	.	.	.
.	.	12ree	.	.	.	.
.	.	.	.	.	.	.
4CC	4re	16Ree/	4r	.	4r	.
.	.	16ree	.	.	.	.
.	.	.	.	.	.	.
.	.	8ree	.	.	.	.
.	.	.	.	.	.	.
.	.	.	.	.	.	.
8CC#	4re	16Ree/	4G#	.	4c# f g#	.
.	.	16ree	.	.	.	.
.	.	.	.	.	.	.
8r	.	8ree	.	.	.	.
.	.	.	.	.	.	.
.	.	.	.	.	.	.
4r	4re	16Ree/	4r	.	4r	.
.	.	16ree	.	.	.	.
.	.	.	.	.	.	.
.	.	8ree	.	.	.	.
.	.	.	.	.	.	.
.	.	.	.	.	.	.
=9	=9	=9	=9	=9	=9	=9
*	*head:regular	*head:x	*	*	*	*
6BBB	4re	4ree	4r	1ryy	4r	B 
.	.	.	.	.	.	.
.	.	.	.	.	.	.
.	.	.	.	.	.	.
12r	.	.	.	.	.	.
.	.	.	.	.	.	.
8.FFF#	4re	16Ree/	4r	.	4r	.
.	.	16ree	.	.	.	.
.	.	.	.	.	.	.
.	.	8ree	.	.	.	.
.	.	.	.	.	.	.
16r	.	.	.	.	.	.
4BBB	4re	16Ree/	4r	.	4r	.
.	.	16ree	.	.	.	.
.	.	.	.	.	.	.
.	.	8ree	.	.	.	.
.	.	.	.	.	.	.
.	.	.	.	.	.	.
4FF#	4re	16Ree/	4r	.	4r	.
.	.	16ree	.	.	.	.
.	.	.	.	.	.	.
.	.	8ree	.	.	.	.
.	.	.	.	.	.	.
.	.	.	.	.	.	.
=10	=10	=10	=10	=10	=10	=10
*	*head:regular	*head:x	*	*	*	*
8BBB	16Rf\	16Ree/	6B	1ryy	6d# f# b	B 
.	16re	16ree	.	.	.	.
.	.	.	.	.	.	.
8r	8re	8ree	.	.	.	.
.	.	.	12r	.	12r	.
.	.	.	.	.	.	.
4DD#	4re	16Ree/	4r	.	4r	.
.	.	16ree	.	.	.	.
.	.	.	.	.	.	.
.	.	8ree	.	.	.	.
.	.	.	.	.	.	.
.	.	.	.	.	.	.
4BBB	4re	16Ree/	6D# F# B	.	6f#	.
.	.	16ree	.	.	.	.
.	.	.	.	.	.	.
.	.	8ree	.	.	.	.
.	.	.	12r	.	12r	.
.	.	.	.	.	.	.
6FFF#	4re	16Ree/	4r	.	4r	.
.	.	16ree	.	.	.	.
.	.	.	.	.	.	.
.	.	8ree	.	.	.	.
12r	.	.	.	.	.	.
.	.	.	.	.	.	.
=11	=11	=11	=11	=11	=11	=11
*	*head:regular	*head:x	*	*	*	*
4BBB	16Rcc\	4ree	4r	1ryy	4r	B 
.	16re	.	.	.	.	.
.	.	.	.	.	.	.
.	8re	.	.	.	.	.
.	.	.	.	.	.	.
.	.	.	.	.	.	.
4BBB	4re	16Ree/	4r	.	4r	.
.	.	16ree	.	.	.	.
.	.	.	.	.	.	.
.	.	8ree	.	.	.	.
.	.	.	.	.	.	.
.	.	.	.	.	.	.
4BBB	4re	16Ree/	4F# B	.	4d# b ff# bb	.
.	.	16ree	.	.	.	.
.	.	.	.	.	.	.
.	.	8ree	.	.	.	.
.	.	.	.	.	.	.
.	.	.	.	.	.	.
4AA#	4re	16Ree/	4r	.	4r	.
.	.	16ree	.	.	.	.
.	.	.	.	.	.	.
.	.	8ree	.	.	.	.
.	.	.	.	.	.	.
.	.	.	.	.	.	.
=12	=12	=12	=12	=12	=12	=12
*	*head:regular	*head:x	*	*	*	*
4BB	4re	16Ree/	4F# B	1ryy	4d# b ff# bb	B 
.	.	16ree	.	.	.	.
.	.	.	.	.	.	.
.	.	8ree	.	.	.	.
.	.	.	.	.	.	.
.	.	.	.	.	.	.
4D#	4re	16Ree/	4r	.	4r	.
.	.	16ree	.	.	.	.
.	.	.	.	.	.	.
.	.	8ree	.	.	.	.
.	.	.	.	.	.	.
.	.	.	.	.	.	.
4FF#	4re	16Ree/	4r	.	4r	.
.	.	16ree	.	.	.	.
.	.	.	.	.	.	.
.	.	8ree	.	.	.	.
.	.	.	.	.	.	.
.	.	.	.	.	.	.
4DD#	4re	16Ree/	4r	.	4r	.
.	.	16ree	.	.	.	.
.	.	.	.	.	.	.
.	.	8ree	.	.	.	.
.	.	.	.	.	.	.
.	.	.	.	.	.	.
=13	=13	=13	=13	=13	=13	=13
*	*head:regular	*head:x	*	*	*	*
4AAA#	4re	16Ree/	4r	1ryy	4r	B 
.	.	16ree	.	.	.	.
.	.	.	.	.	.	.
.	.	8ree	.	.	.	.
.	.	.	.	.	.	.
.	.	.	.	.	.	.
4GGG	4re	16Ree/	4r	.	4r	.
.	.	16ree	.	.	.	.
.	.	.	.	.	.	.
.	.	8ree	.	.	.	.
.	.	.	.	.	.	.
.	.	.	.	.	.	.
6GGG	4re	16Ree/	4r	.	4r	E 
.	.	16ree	.	.	.	.
.	.	.	.	.	.	.
.	.	8ree	.	.	.	.
12r	.	.	.	.	.	.
.	.	.	.	.	.	.
4DD#	4re	16Ree/	4r	.	4r	.
.	.	16ree	.	.	.	.
.	.	.	.	.	.	.
.	.	8ree	.	.	.	.
.	.	.	.	.	.	.
.	.	.	.	.	.	.
=14	=14	=14	=14	=14	=14	=14
*	*head:regular	*head:x	*	*	*	*
4GGG#	4re	16Ree/	4r	1ryy	4r	A 
.	.	16ree	.	.	.	.
.	.	.	.	.	.	.
.	.	8ree	.	.	.	.
.	.	.	.	.	.	.
.	.	.	.	.	.	.
4GGG	4re	16Ree/	4r	.	4r	.
.	.	16ree	.	.	.	.
.	.	.	.	.	.	.
.	.	8ree	.	.	.	.
.	.	.	.	.	.	.
.	.	.	.	.	.	.
4GGG#	4re	16Ree/	4r	.	4r	D 
.	.	16ree	.	.	.	.
.	.	.	.	.	.	.
.	.	8ree	.	.	.	.
.	.	.	.	.	.	.
.	.	.	.	.	.	.
8.FFF	4re	16Ree/	4C# F G#	.	4c#	.
.	.	16ree	.	.	.	.
.	.	.	.	.	.	.
.	.	8ree	.	.	.	.
.	.	.	.	.	.	.
16r	.	.	.	.	.	.
=15	=15	=15	=15	=15	=15	=15
*	*head:regular	*head:x	*	*	*	*
8DD	4re	16Ree/	4r	1ryy	4r	D 
.	.	16ree	.	.	.	.
.	.	.	.	.	.	.
8r	.	8ree	.	.	.	.
.	.	.	.	.	.	.
.	.	.	.	.	.	.
8.AA	4re	16Ree/	4r	.	4r	.
.	.	16ree	.	.	.	.
.	.	.	.	.	.	.
.	.	8ree	.	.	.	.
.	.	.	.	.	.	.
16r	.	.	.	.	.	.
4DD#	16Rf\	16Ree/	12D# G A#	.	12d#	E 
.	16re	16ree	.	.	.	.
.	.	.	12r	.	12r	.
.	8re	8ree	.	.	.	.
.	.	.	12r	.	12r	.
.	.	.	.	.	.	.
4AA	4re	16Ree/	4r	.	4r	D 
.	.	16ree	.	.	.	.
.	.	.	.	.	.	.
.	.	8ree	.	.	.	.
.	.	.	.	.	.	.
.	.	.	.	.	.	.
=16	=16	=16	=16	=16	=16	=16
*	*head:regular	*head:x	*	*	*	*
4CC#	4re	16Ree/	4r	1ryy	4r	D 
.	.	16ree	.	.	.	.
.	.	.	.	.	.	.
.	.	8ree	.	.	.	.
.	.	.	.	.	.	.
.	.	.	.	.	.	.
4CC#	4re	16Ree/	12F G#	.	12c# g#	.
.	.	16ree	.	.	.	.
.	.	.	12r	.	12r	.
.	.	8ree	.	.	.	.
.	.	.	12r	.	12r	.
.	.	.	.	.	.	.
8CC#	4re	4ree	4F G#	.	4c# g#	.
.	.	.	.	.	.	.
.	.	.	.	.	.	.
8r	.	.	.	.	.	.
.	.	.	.	.	.	.
.	.	.	.	.	.	.
4r	4re	16Ree/	4r	.	4r	.
.	.	16ree	.	.	.	.
.	.	.	.	.	.	.
.	.	8ree	.	.	.	.
.	.	.	.	.	.	.
.	.	.	.	.	.	.
=17	=17	=17	=17	=17	=17	=17
*	*head:regular	*head:x	*	*	*	*
4DD#	4re	4ree	4r	1ryy	4r	E a
.	.	.	.	.	.	.
.	.	.	.	.	.	.
.	.	.	.	.	.	.
.	.	.	.	.	.	.
.	.	.	.	.	.	.
8.AAA	4re	16Ree/	4r	.	4r	.
.	.	16ree	.	.	.	.
.	.	.	.	.	.	.
.	.	8ree	.	.	.	.
.	.	.	.	.	.	.
16r	.	.	.	.	.	.
6GGG#	4re	4ree	4r	.	4r	A @
.	.	.	.	.	.	.
.	.	.	.	.	.	.
.	.	.	.	.	.	.
12r	.	.	.	.	.	.
.	.	.	.	.	.	.
4CC	4re	16Ree/	4r	.	4r	.
.	.	16ree	.	.	.	.
.	.	.	.	.	.	.
.	.	8ree	.	.	.	.
.	.	.	.	.	.	.
.	.	.	.	.	.	.
=18	=18	=18	=18	=18	=18	=18
*	*head:regular	*head:x	*	*	*	*
4CC#	4re	4ree	4r	1ryy	4r	D 
.	.	.	.	.	.	.
.	.	.	.	.	.	.
.	.	.	.	.	.	.
.	.	.	.	.	.	.
.	.	.	.	.	.	.
4GG#	4re	16Ree/	4r	.	4r	.
.	.	16ree	.	.	.	.
.	.	.	.	.	.	.
.	.	8ree	.	.	.	.
.	.	.	.	.	.	.
.	.	.	.	.	.	.
4CC#	4re	4ree	4r	.	6c# f g# cc#	.
.	.	.	.	.	.	.
.	.	.	.	.	.	.
.	.	.	.	.	.	.
.	.	.	.	.	12r	.
.	.	.	.	.	.	.
8.FFF	4re	16Ree/	4r	.	4r	.
.	.	16ree	.	.	.	.
.	.	.	.	.	.	.
.	.	8ree	.	.	.	.
.	.	.	.	.	.	.
16r	.	.	.	.	.	.
=19	=19	=19	=19	=19	=19	=19
*	*head:regular	*head:x	*	*	*	*
8EEE	4re	4ree	4r	1ryy	4r	E a
.	.	.	.	.	.	.
.	.	.	.	.	.	.
8r	.	.	.	.	.	.
.	.	.	.	.	.	.
.	.	.	.	.	.	.
4GGG#	4re	16Ree/	4r	.	4r	.
.	.	16ree	.	.	.	.
.	.	.	.	.	.	.
.	.	8ree	.	.	.	.
.	.	.	.	.	.	.
.	.	.	.	.	.	.
4AAA	4re	4ree	6A	.	6c# e a	A 
.	.	.	.	.	.	.
.	.	.	.	.	.	.
.	.	.	.	.	.	.
.	.	.	12r	.	12r	.
.	.	.	.	.	.	.
4CC#	4re	16Ree/	4r	.	4r	.
.	.	16ree	.	.	.	.
.	.	.	.	.	.	.
.	.	8ree	.	.	.	.
.	.	.	.	.	.	.
.	.	.	.	.	.	.
=20	=20	=20	=20	=20	=20	=20
*	*head:regular	*head:x	*	*	*	*
4DD	4re	4ree	6F# A	1ryy	6d a	D 
.	.	.	.	.	.	.
.	.	.	.	.	.	.
.	.	.	.	.	.	.
.	.	.	12r	.	12r	.
.	.	.	.	.	.	.
4FF#	4re	16Ree/	4r	.	4r	.
.	.	16ree	.	.	.	.
.	.	.	.	.	.	.
.	.	8ree	.	.	.	.
.	.	.	.	.	.	.
.	.	.	.	.	.	.
4FF#	4re	4ree	4r	.	4r	.
.	.	.	.	.	.	.
.	.	.	.	.	.	.
.	.	.	.	.	.	.
.	.	.	.	.	.	.
.	.	.	.	.	.	.
4GG	4re	16Ree/	4r	.	4r	.
.	.	16ree	.	.	.	.
.	.	.	.	.	.	.
.	.	8ree	.	.	.	.
.	.	.	.	.	.	.
.	.	.	.	.	.	.
=21	=21	=21	=21	=21	=21	=21
*	*head:regular	*head:x	*	*	*	*
4GG#	4re	4ree	4G# B	1ryy	4d g#	G+ >
.	.	.	.	.	.	.
.	.	.	.	.	.	.
.	.	.	.	.	.	.
.	.	.	.	.	.	.
.	.	.	.	.	.	.
4DD	4re	16Ree/	4r	.	4r	.
.	.	16ree	.	.	.	.
.	.	.	.	.	.	.
.	.	8ree	.	.	.	.
.	.	.	.	.	.	.
.	.	.	.	.	.	.
4AA	4re	4ree	4r	.	4r	C+ @
.	.	.	.	.	.	.
.	.	.	.	.	.	.
.	.	.	.	.	.	.
.	.	.	.	.	.	.
.	.	.	.	.	.	.
6FF	4re	16Ree/	4r	.	4r	.
.	.	16ree	.	.	.	.
.	.	.	.	.	.	.
.	.	8ree	.	.	.	.
12r	.	.	.	.	.	.
.	.	.	.	.	.	.
=22	=22	=22	=22	=22	=22	=22
*	*head:regular	*head:x	*	*	*	*
4DD	4re	4ree	6F# A	1ryy	6d a	D 
.	.	.	.	.	.	.
.	.	.	.	.	.	.
.	.	.	.	.	.	.
.	.	.	12r	.	12r	.
.	.	.	.	.	.	.
4AAA	4re	16Ree/	4r	.	4r	.
.	.	16ree	.	.	.	.
.	.	.	.	.	.	.
.	.	8ree	.	.	.	.
.	.	.	.	.	.	.
.	.	.	.	.	.	.
4DD	4re	4ree	4r	.	4r	.
.	.	.	.	.	.	.
.	.	.	.	.	.	.
.	.	.	.	.	.	.
.	.	.	.	.	.	.
.	.	.	.	.	.	.
8.AAA	4re	16Ree/	4r	.	4r	.
.	.	16ree	.	.	.	.
.	.	.	.	.	.	.
.	.	8ree	.	.	.	.
.	.	.	.	.	.	.
16r	.	.	.	.	.	.
=23	=23	=23	=23	=23	=23	=23
*	*head:regular	*head:x	*	*	*	*
8.GGG#	4re	4ree	4G#	1ryy	4c d# g#	A 
.	.	.	.	.	.	.
.	.	.	.	.	.	.
.	.	.	.	.	.	.
.	.	.	.	.	.	.
16r	.	.	.	.	.	.
4GGG#	4re	16Ree/	4r	.	4r	.
.	.	16ree	.	.	.	.
.	.	.	.	.	.	.
.	.	8ree	.	.	.	.
.	.	.	.	.	.	.
.	.	.	.	.	.	.
8GGG	4re	4ree	4r	.	4r	G 
.	.	.	.	.	.	.
.	.	.	.	.	.	.
8r	.	.	.	.	.	.
.	.	.	.	.	.	.
.	.	.	.	.	.	.
4DD	4re	16Ree/	4r	.	4r	.
.	.	16ree	.	.	.	.
.	.	.	.	.	.	.
.	.	8ree	.	.	.	.
.	.	.	.	.	.	.
.	.	.	.	.	.	.
=24	=24	=24	=24	=24	=24	=24
*	*head:regular	*head:x	*	*	*	*
4FFF#	4re	4ree	4r	1ryy	4r	G 
.	.	.	.	.	.	.
.	.	.	.	.	.	.
.	.	.	.	.	.	.
.	.	.	.	.	.	.
.	.	.	.	.	.	.
4CC#	4re	16Ree/	4r	.	4r	.
.	.	16ree	.	.	.	.
.	.	.	.	.	.	.
.	.	8ree	.	.	.	.
.	.	.	.	.	.	.
.	.	.	.	.	.	.
8GG#	4re	4ree	4C D# G#	.	4d#	A 
.	.	.	.	.	.	.
.	.	.	.	.	.	.
8r	.	.	.	.	.	.
.	.	.	.	.	.	.
.	.	.	.	.	.	.
8DD#	16Rf\	16Ree/	4r	.	4r	.
.	16re	16ree	.	.	.	.
.	.	.	.	.	.	.
8r	8re	8ree	.	.	.	.
.	.	.	.	.	.	.
.	.	.	.	.	.	.
=25	=25	=25	=25	=25	=25	=25
*	*head:regular	*head:x	*	*	*	*
4BBB	4re	4ree	4r	1ryy	4r	B 
.	.	.	.	.	.	.
.	.	.	.	.	.	.
.	.	.	.	.	.	.
.	.	.	.	.	.	.
.	.	.	.	.	.	.
4AAA#	4re	16Ree/	4r	.	4r	.
.	.	16ree	.	.	.	.
.	.	.	.	.	.	.
.	.	8ree	.	.	.	.
.	.	.	.	.	.	.
.	.	.	.	.	.	.
6BBB	16Rf\	16Ree/	4B	.	4d# f# b	.
.	16re	16ree	.	.	.	.
.	.	.	.	.	.	.
.	8re	8ree	.	.	.	.
12r	.	.	.	.	.	.
.	.	.	.	.	.	.
4BBB	4re	16Ree/	4r	.	4r	.
.	.	16ree	.	.	.	.
.	.	.	.	.	.	.
.	.	8ree	.	.	.	.
.	.	.	.	.	.	.
.	.	.	.	.	.	.
=26	=26	=26	=26	=26	=26	=26
*	*head:regular	*head:x	*	*	*	*
4BBB	16Rf\	16Ree/	4r	1ryy	4r	B 
.	16re	16ree	.	.	.	.
.	.	.	.	.	.	.
.	8re	8ree	.	.	.	.
.	.	.	.	.	.	.
.	.	.	.	.	.	.
4AAA#	4re	16Ree/	4r	.	4r	.
.	.	16ree	.	.	.	.
.	.	.	.	.	.	.
.	.	8ree	.	.	.	.
.	.	.	.	.	.	.
.	.	.	.	.	.	.
4BBB	4re	16Ree/	6F# B	.	6d# b ff# bb	.
.	.	16ree	.	.	.	.
.	.	.	.	.	.	.
.	.	8ree	.	.	.	.
.	.	.	12r	.	12r	.
.	.	.	.	.	.	.
8.FFF#	16Rf\	16Ree/	4r	.	4r	.
.	16re	16ree	.	.	.	.
.	.	.	.	.	.	.
.	8re	8ree	.	.	.	.
.	.	.	.	.	.	.
16r	.	.	.	.	.	.
=27	=27	=27	=27	=27	=27	=27
*	*head:regular	*head:x	*	*	*	*
8BBB	4re	16Ree/	4r	1ryy	4r	B 
.	.	16ree	.	.	.	.
.	.	.	.	.	.	.
8r	.	8ree	.	.	.	.
.	.	.	.	.	.	.
.	.	.	.	.	.	.
8.AAA#	16Rf\	16Ree/	4r	.	4r	.
.	16re	16ree	.	.	.	.
.	.	.	.	.	.	.
.	8re	8ree	.	.	.	.
.	.	.	.	.	.	.
16r	.	.	.	.	.	.
4BBB	4re	16Ree/	4D# F# B	.	4f#	.
.	.	16ree	.	.	.	.
.	.	.	.	.	.	.
.	.	8ree	.	.	.	.
.	.	.	.	.	.	.
.	.	.	.	.	.	.
4FFF#	4re	16Ree/	4r	.	4r	.
.	.	16ree	.	.	.	.
.	.	.	.	.	.	.
.	.	8ree	.	.	.	.
.	.	.	.	.	.	.
.	.	.	.	.	.	.
=28	=28	=28	=28	=28	=28	=28
*	*head:regular	*head:x	*	*	*	*
4BBB	4re	16Ree/	4F# B	1ryy	4d# b ff# bb	B 
.	.	16ree	.	.	.	.
.	.	.	.	.	.	.
.	.	8ree	.	.	.	.
.	.	.	.	.	.	.
.	.	.	.	.	.	.
4FF#	4re	16Ree/	4r	.	4r	.
.	.	16ree	.	.	.	.
.	.	.	.	.	.	.
.	.	8ree	.	.	.	.
.	.	.	.	.	.	.
.	.	.	.	.	.	.
4FFF#	4re	16Ree/	4F# B	.	4d# f#	.
.	.	16ree	.	.	.	.
.	.	.	.	.	.	.
.	.	8ree	.	.	.	.
.	.	.	.	.	.	.
.	.	.	.	.	.	.
4AAA	4re	16Ree/	4r	.	4r	.
.	.	16ree	.	.	.	.
.	.	.	.	.	.	.
.	.	8ree	.	.	.	.
.	.	.	.	.	.	.
.	.	.	.	.	.	.
=29	=29	=29	=29	=29	=29	=29
*	*head:regular	*head:x	*	*	*	*
4AAA#	12Rf\	12Ree/	4r	1ryy	4r	B 
.	.	.	.	.	.	.
.	12re	12ree	.	.	.	.
.	.	.	.	.	.	.
.	12re	12ree	.	.	.	.
.	.	.	.	.	.	.
4FFF	4re	12Ree/	4r	.	4r	.
.	.	.	.	.	.	.
.	.	12ree	.	.	.	.
.	.	.	.	.	.	.
.	.	12ree	.	.	.	.
.	.	.	.	.	.	.
4DD#	4re	12Ree/	4r	.	4r	E 
.	.	.	.	.	.	.
.	.	12ree	.	.	.	.
.	.	.	.	.	.	.
.	.	12ree	.	.	.	.
.	.	.	.	.	.	.
6AAA#	4re	12Ree/	4r	.	4r	.
.	.	.	.	.	.	.
.	.	12ree	.	.	.	.
.	.	.	.	.	.	.
12r	.	12ree	.	.	.	.
.	.	.	.	.	.	.
=30	=30	=30	=30	=30	=30	=30
*	*head:regular	*head:x	*	*	*	*
4GG#	12Rf\	12Ree/	4r	1ryy	4r	A 
.	.	.	.	.	.	.
.	12re	12ree	.	.	.	.
.	.	.	.	.	.	.
.	12re	12ree	.	.	.	.
.	.	.	.	.	.	.
4DD	4re	12Ree/	12D# G#	.	12c g# dd# gg#	.
.	.	.	.	.	.	.
.	.	12ree	12r	.	12r	.
.	.	.	.	.	.	.
.	.	12ree	12r	.	12r	.
.	.	.	.	.	.	.
4CC#	4re	12Ree/	4F	.	4c# g# cc# gg#	D 
.	.	.	.	.	.	.
.	.	12ree	.	.	.	.
.	.	.	.	.	.	.
.	.	12ree	.	.	.	.
.	.	.	.	.	.	.
8GGG#	4re	16Ree/	4r	.	4r	.
.	.	16ree	.	.	.	.
.	.	.	.	.	.	.
8r	.	8ree	.	.	.	.
.	.	.	.	.	.	.
.	.	.	.	.	.	.
=31	=31	=31	=31	=31	=31	=31
*	*head:regular	*head:x	*	*	*	*
8.DD	4re	12Ree/	4r	1ryy	4r	D 
.	.	.	.	.	.	.
.	.	12ree	.	.	.	.
.	.	.	.	.	.	.
.	.	12ree	.	.	.	.
16r	.	.	.	.	.	.
4AAA	4re	16Ree/	4r	.	4r	.
.	.	16ree	.	.	.	.
.	.	.	.	.	.	.
.	.	8ree	.	.	.	.
.	.	.	.	.	.	.
.	.	.	.	.	.	.
4DD#	4re	12Ree/	4r	.	4r	E 
.	.	.	.	.	.	.
.	.	12ree	.	.	.	.
.	.	.	.	.	.	.
.	.	12ree	.	.	.	.
.	.	.	.	.	.	.
4DD	4re	12Ree/	4r	.	4r	D 
.	.	.	.	.	.	.
.	.	12ree	.	.	.	.
.	.	.	.	.	.	.
.	.	12ree	.	.	.	.
.	.	.	.	.	.	.
=32	=32	=32	=32	=32	=32	=32
*	*head:regular	*head:x	*	*	*	*
4CC#	4re	12Ree/	4r	1ryy	4r	D 
.	.	.	.	.	.	.
.	.	12ree	.	.	.	.
.	.	.	.	.	.	.
.	.	12ree	.	.	.	.
.	.	.	.	.	.	.
4CC	4re	12Ree/	12F G#	.	12c# g#	.
.	.	.	.	.	.	.
.	.	12ree	12r	.	12r	.
.	.	.	.	.	.	.
.	.	12ree	12r	.	12r	.
.	.	.	.	.	.	.
8CC#	4re	16Ree/	4F G#	.	4c# g#	.
.	.	16ree	.	.	.	.
.	.	.	.	.	.	.
8r	.	8ree	.	.	.	.
.	.	.	.	.	.	.
.	.	.	.	.	.	.
4r	4re	16Ree/	4r	.	4r	.
.	.	16ree	.	.	.	.
.	.	.	.	.	.	.
.	.	8ree	.	.	.	.
.	.	.	.	.	.	.
.	.	.	.	.	.	.
=33	=33	=33	=33	=33	=33	=33
*	*head:regular	*head:x	*	*	*	*
4BBB	4re	4ree	4r	1ryy	4r	B 
.	.	.	.	.	.	.
.	.	.	.	.	.	.
.	.	.	.	.	.	.
.	.	.	.	.	.	.
.	.	.	.	.	.	.
8.DD#	4re	12Ree/	4r	.	4r	.
.	.	.	.	.	.	.
.	.	12ree	.	.	.	.
.	.	.	.	.	.	.
.	.	12ree	.	.	.	.
16r	.	.	.	.	.	.
6FF#	4re	12Ree/	4r	.	4r	.
.	.	.	.	.	.	.
.	.	12ree	.	.	.	.
.	.	.	.	.	.	.
12r	.	12ree	.	.	.	.
.	.	.	.	.	.	.
4BB	4re	16Ree/	4r	.	4r	.
.	.	16ree	.	.	.	.
.	.	.	.	.	.	.
.	.	8ree	.	.	.	.
.	.	.	.	.	.	.
.	.	.	.	.	.	.
=34	=34	=34	=34	=34	=34	=34
*	*head:regular	*head:x	*	*	*	*
4FFF#	4re	12Ree/	4r	1ryy	4r	B 
.	.	.	.	.	.	.
.	.	12ree	.	.	.	.
.	.	.	.	.	.	.
.	.	12ree	.	.	.	.
.	.	.	.	.	.	.
4BBB	4re	12Ree/	4r	.	4r	.
.	.	.	.	.	.	.
.	.	12ree	.	.	.	.
.	.	.	.	.	.	.
.	.	12ree	.	.	.	.
.	.	.	.	.	.	.
4BBB	4re	12Ree/	4r	.	4r	.
.	.	.	.	.	.	.
.	.	12ree	.	.	.	.
.	.	.	.	.	.	.
.	.	12ree	.	.	.	.
.	.	.	.	.	.	.
8.FFF#	4re	16Ree/	4F# B	.	4d# f#	.
.	.	16ree	.	.	.	.
.	.	.	.	.	.	.
.	.	8ree	.	.	.	.
.	.	.	.	.	.	.
16r	.	.	.	.	.	.
=35	=35	=35	=35	=35	=35	=35
*	*head:regular	*head:x	*	*	*	*
8BBB	4re	12Ree/	4r	1ryy	4r	B 
.	.	.	.	.	.	.
.	.	12ree	.	.	.	.
8r	.	.	.	.	.	.
.	.	12ree	.	.	.	.
.	.	.	.	.	.	.
4BBB	4re	12Ree/	4r	.	4r	.
.	.	.	.	.	.	.
.	.	12ree	.	.	.	.
.	.	.	.	.	.	.
.	.	12ree	.	.	.	.
.	.	.	.	.	.	.
4BBB	4re	12Ree/	12D# F# B	.	12f#	.
.	.	.	.	.	.	.
.	.	12ree	12r	.	12r	.
.	.	.	.	.	.	.
.	.	12ree	12r	.	12r	.
.	.	.	.	.	.	.
4BBB	4re	16Ree/	4r	.	4r	.
.	.	16ree	.	.	.	.
.	.	.	.	.	.	.
.	.	8ree	.	.	.	.
.	.	.	.	.	.	.
.	.	.	.	.	.	.
=36	=36	=36	=36	=36	=36	=36
*	*head:regular	*head:x	*	*	*	*
4BBB	4re	16Ree/	4r	1ryy	4r	B 
.	.	16ree	.	.	.	.
.	.	.	.	.	.	.
.	.	8ree	.	.	.	.
.	.	.	.	.	.	.
.	.	.	.	.	.	.
4DD	12Rf\	16Ree/	12F# B	.	12d# b ff# bb	.
.	.	16ree	.	.	.	.
.	12re	.	12r	.	12r	.
.	.	8ree	.	.	.	.
.	12re	.	12r	.	12r	.
.	.	.	.	.	.	.
4DD#	4re	4ree	6F# B	.	6d# f#	.
.	.	.	.	.	.	.
.	.	.	.	.	.	.
.	.	.	.	.	.	.
.	.	.	12r	.	12r	.
.	.	.	.	.	.	.
4BBB	4re	16Ree/	4r	.	4r	.
.	.	16ree	.	.	.	.
.	.	.	.	.	.	.
.	.	8ree	.	.	.	.
.	.	.	.	.	.	.
.	.	.	.	.	.	.
=37	=37	=37	=37	=37	=37	=37
*	*head:regular	*head:x	*	*	*	*
4AAA#	4re	16Ree/	4r	1ryy	4r	B 
.	.	16ree	.	.	.	.
.	.	.	.	.	.	.
.	.	8ree	.	.	.	.
.	.	.	.	.	.	.
.	.	.	.	.	.	.
4GGG#	4re	16Ree/	4r	.	4r	.
.	.	16ree	.	.	.	.
.	.	.	.	.	.	.
.	.	8ree	.	.	.	.
.	.	.	.	.	.	.
.	.	.	.	.	.	.
4GGG	16Rf\	16Ree/	4D# G A#	.	4d#	E 
.	16re	16ree	.	.	.	.
.	.	.	.	.	.	.
.	8re	8ree	.	.	.	.
.	.	.	.	.	.	.
.	.	.	.	.	.	.
6DD#	4re	16Ree/	4r	.	4r	.
.	.	16ree	.	.	.	.
.	.	.	.	.	.	.
.	.	8ree	.	.	.	.
12r	.	.	.	.	.	.
.	.	.	.	.	.	.
=38	=38	=38	=38	=38	=38	=38
*	*head:regular	*head:x	*	*	*	*
4GGG#	16Rf\	16Ree/	4r	1ryy	4r	A 
.	16re	16ree	.	.	.	.
.	.	.	.	.	.	.
.	8re	8ree	.	.	.	.
.	.	.	.	.	.	.
.	.	.	.	.	.	.
4CC	4re	16Ree/	4r	.	4r	.
.	.	16ree	.	.	.	.
.	.	.	.	.	.	.
.	.	8ree	.	.	.	.
.	.	.	.	.	.	.
.	.	.	.	.	.	.
4CC#	4re	16Ree/	6C# F G#	.	6c#	D 
.	.	16ree	.	.	.	.
.	.	.	.	.	.	.
.	.	8ree	.	.	.	.
.	.	.	12r	.	12r	.
.	.	.	.	.	.	.
8GGG#	16Rf\	16Ree/	4r	.	4r	.
.	16re	16ree	.	.	.	.
.	.	.	.	.	.	.
8r	8re	8ree	.	.	.	.
.	.	.	.	.	.	.
.	.	.	.	.	.	.
=39	=39	=39	=39	=39	=39	=39
*	*head:regular	*head:x	*	*	*	*
8.D	4re	16Ree/	4r	1ryy	4r	D 
.	.	16ree	.	.	.	.
.	.	.	.	.	.	.
.	.	8ree	.	.	.	.
.	.	.	.	.	.	.
16r	.	.	.	.	.	.
4AA	16Rf\	16Ree/	4r	.	4r	.
.	16re	16ree	.	.	.	.
.	.	.	.	.	.	.
.	8re	8ree	.	.	.	.
.	.	.	.	.	.	.
.	.	.	.	.	.	.
4DD#	4re	16Ree/	4G A#	.	4d# a#	E 
.	.	16ree	.	.	.	.
.	.	.	.	.	.	.
.	.	8ree	.	.	.	.
.	.	.	.	.	.	.
.	.	.	.	.	.	.
4FF#	4re	16Ree/	4r	.	4r	D 
.	.	16ree	.	.	.	.
.	.	.	.	.	.	.
.	.	8ree	.	.	.	.
.	.	.	.	.	.	.
.	.	.	.	.	.	.
=40	=40	=40	=40	=40	=40	=40
*	*head:regular	*head:x	*	*	*	*
4CC#	4re	16Ree/	4r	1ryy	4r	D 
.	.	16ree	.	.	.	.
.	.	.	.	.	.	.
.	.	8ree	.	.	.	.
.	.	.	.	.	.	.
.	.	.	.	.	.	.
4CC	4re	16Ree/	4r	.	4r	.
.	.	16ree	.	.	.	.
.	.	.	.	.	.	.
.	.	8ree	.	.	.	.
.	.	.	.	.	.	.
.	.	.	.	.	.	.
8CC#	4re	16Ree/	4C# F G#	.	4c#	.
.	.	16ree	.	.	.	.
.	.	.	.	.	.	.
8r	.	8ree	.	.	.	.
.	.	.	.	.	.	.
.	.	.	.	.	.	.
8GGG#	4re	16Ree/	4r	.	4r	.
.	.	16ree	.	.	.	.
.	.	.	.	.	.	.
8r	.	8ree	.	.	.	.
.	.	.	.	.	.	.
.	.	.	.	.	.	.
=41	=41	=41	=41	=41	=41	=41
*	*head:regular	*head:x	*	*	*	*
4BBB	4re	4ree	4r	1ryy	4r	B 
.	.	.	.	.	.	.
.	.	.	.	.	.	.
.	.	.	.	.	.	.
.	.	.	.	.	.	.
.	.	.	.	.	.	.
4DD#	4re	12Ree/	4r	.	4r	.
.	.	.	.	.	.	.
.	.	12ree	.	.	.	.
.	.	.	.	.	.	.
.	.	12ree	.	.	.	.
.	.	.	.	.	.	.
4BBB	4re	12Ree/	6D# F# B	.	6f#	.
.	.	.	.	.	.	.
.	.	12ree	.	.	.	.
.	.	.	.	.	.	.
.	.	12ree	12r	.	12r	.
.	.	.	.	.	.	.
6FF#	4re	12Ree/	4r	.	4r	.
.	.	.	.	.	.	.
.	.	12ree	.	.	.	.
.	.	.	.	.	.	.
12r	.	12ree	.	.	.	.
.	.	.	.	.	.	.
=42	=42	=42	=42	=42	=42	=42
*	*head:regular	*head:x	*	*	*	*
4BBB	4re	12Ree/	4r	1ryy	4r	B 
.	.	.	.	.	.	.
.	.	12ree	.	.	.	.
.	.	.	.	.	.	.
.	.	12ree	.	.	.	.
.	.	.	.	.	.	.
4FFF#	4re	12Ree/	4r	.	4r	.
.	.	.	.	.	.	.
.	.	12ree	.	.	.	.
.	.	.	.	.	.	.
.	.	12ree	.	.	.	.
.	.	.	.	.	.	.
4FF#	4re	12Ree/	4D# F# B	.	4f#	.
.	.	.	.	.	.	.
.	.	12ree	.	.	.	.
.	.	.	.	.	.	.
.	.	12ree	.	.	.	.
.	.	.	.	.	.	.
8DD#	4re	12Ree/	4r	.	4r	.
.	.	.	.	.	.	.
.	.	12ree	.	.	.	.
8r	.	.	.	.	.	.
.	.	12ree	.	.	.	.
.	.	.	.	.	.	.
=43	=43	=43	=43	=43	=43	=43
*	*head:regular	*head:x	*	*	*	*
8.FFF#	4re	12Ree/	4r	1ryy	4r	B 
.	.	.	.	.	.	.
.	.	12ree	.	.	.	.
.	.	.	.	.	.	.
.	.	12ree	.	.	.	.
16r	.	.	.	.	.	.
4AAA#	4re	12Ree/	4r	.	4r	.
.	.	.	.	.	.	.
.	.	12ree	.	.	.	.
.	.	.	.	.	.	.
.	.	12ree	.	.	.	.
.	.	.	.	.	.	.
4BBB	4re	12Ree/	4r	.	4r	.
.	.	.	.	.	.	.
.	.	12ree	.	.	.	.
.	.	.	.	.	.	.
.	.	12ree	.	.	.	.
.	.	.	.	.	.	.
4FF#	4re	12Ree/	4r	.	4r	.
.	.	.	.	.	.	.
.	.	12ree	.	.	.	.
.	.	.	.	.	.	.
.	.	12ree	.	.	.	.
.	.	.	.	.	.	.
=44	=44	=44	=44	=44	=44	=44
*	*head:regular	*head:x	*	*	*	*
4BBB	4re	12Ree/	6B	1ryy	6d# f# b	B 
.	.	.	.	.	.	.
.	.	12ree	.	.	.	.
.	.	.	.	.	.	.
.	.	12ree	12r	.	12r	.
.	.	.	.	.	.	.
4FFF#	4re	12Ree/	4r	.	4r	.
.	.	.	.	.	.	.
.	.	12ree	.	.	.	.
.	.	.	.	.	.	.
.	.	12ree	.	.	.	.
.	.	.	.	.	.	.
4BBB	4re	12Ree/	6F# B	.	6d# b ff# bb	.
.	.	.	.	.	.	.
.	.	12ree	.	.	.	.
.	.	.	.	.	.	.
.	.	12ree	12r	.	12r	.
.	.	.	.	.	.	.
6DD#	4re	12Ree/	4r	.	4r	.
.	.	.	.	.	.	.
.	.	12ree	.	.	.	.
.	.	.	.	.	.	.
12r	.	12ree	.	.	.	.
.	.	.	.	.	.	.
=45	=45	=45	=45	=45	=45	=45
*	*head:regular	*head:x	*	*	*	*
6AAA#	4re	16Ree/	4r	1ryy	4r	B 
.	.	16ree	.	.	.	.
.	.	.	.	.	.	.
.	.	8ree	.	.	.	.
12r	.	.	.	.	.	.
.	.	.	.	.	.	.
8.DD	4re	16Ree/	4A#	.	4d f a#	.
.	.	16ree	.	.	.	.
.	.	.	.	.	.	.
.	.	8ree	.	.	.	.
.	.	.	.	.	.	.
16r	.	.	.	.	.	.
4DD#	4re	16Ree/	4r	.	4r	E 
.	.	16ree	.	.	.	.
.	.	.	.	.	.	.
.	.	8ree	.	.	.	.
.	.	.	.	.	.	.
.	.	.	.	.	.	.
4AAA#	4re	16Ree/	4r	.	4r	.
.	.	16ree	.	.	.	.
.	.	.	.	.	.	.
.	.	8ree	.	.	.	.
.	.	.	.	.	.	.
.	.	.	.	.	.	.
=46	=46	=46	=46	=46	=46	=46
*	*head:regular	*head:x	*	*	*	*
8GGG#	4re	16Ree/	4r	1ryy	4r	A 
.	.	16ree	.	.	.	.
.	.	.	.	.	.	.
8r	.	8ree	.	.	.	.
.	.	.	.	.	.	.
.	.	.	.	.	.	.
4DD#	4re	16Ree/	4r	.	4r	.
.	.	16ree	.	.	.	.
.	.	.	.	.	.	.
.	.	8ree	.	.	.	.
.	.	.	.	.	.	.
.	.	.	.	.	.	.
4CC#	4re	16Ree/	6F G#	.	6c# g#	D 
.	.	16ree	.	.	.	.
.	.	.	.	.	.	.
.	.	8ree	.	.	.	.
.	.	.	12r	.	12r	.
.	.	.	.	.	.	.
6GGG#	4re	16Ree/	4r	.	4r	.
.	.	16ree	.	.	.	.
.	.	.	.	.	.	.
.	.	8ree	.	.	.	.
12r	.	.	.	.	.	.
.	.	.	.	.	.	.
=47	=47	=47	=47	=47	=47	=47
*	*head:regular	*head:x	*	*	*	*
4DD	4re	16Ree/	4D F# A	1ryy	4d	D 
.	.	16ree	.	.	.	.
.	.	.	.	.	.	.
.	.	8ree	.	.	.	.
.	.	.	.	.	.	.
.	.	.	.	.	.	.
4AAA	16Rcc\	16Ree/	4r	.	4r	.
.	16re	16ree	.	.	.	.
.	.	.	.	.	.	.
.	8re	8ree	.	.	.	.
.	.	.	.	.	.	.
.	.	.	.	.	.	.
4DD#	4re	16Ree/	4r	.	4r	E 
.	.	16ree	.	.	.	.
.	.	.	.	.	.	.
.	.	8ree	.	.	.	.
.	.	.	.	.	.	.
.	.	.	.	.	.	.
4FF#	4re	16Ree/	4r	.	4r	D 
.	.	16ree	.	.	.	.
.	.	.	.	.	.	.
.	.	8ree	.	.	.	.
.	.	.	.	.	.	.
.	.	.	.	.	.	.
=48	=48	=48	=48	=48	=48	=48
*	*head:regular	*head:x	*	*	*	*
4C#	4re	16Ree/	4r	1ryy	4r	D 
.	.	16ree	.	.	.	.
.	.	.	.	.	.	.
.	.	8ree	.	.	.	.
.	.	.	.	.	.	.
.	.	.	.	.	.	.
4G#	4re	16Ree/	6F G#	.	6c# g#	.
.	.	16ree	.	.	.	.
.	.	.	.	.	.	.
.	.	8ree	.	.	.	.
.	.	.	12r	.	12r	.
.	.	.	.	.	.	.
8CC#	4re	16Ree/	4C# F G#	.	4c#	.
.	.	16ree	.	.	.	.
.	.	.	.	.	.	.
8r	.	8ree	.	.	.	.
.	.	.	.	.	.	.
.	.	.	.	.	.	.
8GGG#	4re	16Ree/	4r	.	4r	.
.	.	16ree	.	.	.	.
.	.	.	.	.	.	.
8r	.	8ree	.	.	.	.
.	.	.	.	.	.	.
.	.	.	.	.	.	.
=49	=49	=49	=49	=49	=49	=49
*	*head:regular	*head:x	*	*	*	*
4DD#	4re	4ree	4r	1ryy	4r	E a
.	.	.	.	.	.	.
.	.	.	.	.	.	.
.	.	.	.	.	.	.
.	.	.	.	.	.	.
.	.	.	.	.	.	.
8.AAA#	4re	16Ree/	4r	.	4r	.
.	.	16ree	.	.	.	.
.	.	.	.	.	.	.
.	.	8ree	.	.	.	.
.	.	.	.	.	.	.
16r	.	.	.	.	.	.
6GGG#	4re	4ree	4r	.	4r	A @
.	.	.	.	.	.	.
.	.	.	.	.	.	.
.	.	.	.	.	.	.
12r	.	.	.	.	.	.
.	.	.	.	.	.	.
4CC	4re	16Ree/	4r	.	4r	.
.	.	16ree	.	.	.	.
.	.	.	.	.	.	.
.	.	8ree	.	.	.	.
.	.	.	.	.	.	.
.	.	.	.	.	.	.
=50	=50	=50	=50	=50	=50	=50
*	*head:regular	*head:x	*	*	*	*
4CC#	4re	4ree	4r	1ryy	4r	D 
.	.	.	.	.	.	.
.	.	.	.	.	.	.
.	.	.	.	.	.	.
.	.	.	.	.	.	.
.	.	.	.	.	.	.
4GGG#	4re	16Ree/	4r	.	4r	.
.	.	16ree	.	.	.	.
.	.	.	.	.	.	.
.	.	8ree	.	.	.	.
.	.	.	.	.	.	.
.	.	.	.	.	.	.
4CC#	4re	4ree	4r	.	4r	.
.	.	.	.	.	.	.
.	.	.	.	.	.	.
.	.	.	.	.	.	.
.	.	.	.	.	.	.
.	.	.	.	.	.	.
8.GG#	4re	16Ree/	4F	.	4c# g# cc# gg#	.
.	.	16ree	.	.	.	.
.	.	.	.	.	.	.
.	.	8ree	.	.	.	.
.	.	.	.	.	.	.
16r	.	.	.	.	.	.
=51	=51	=51	=51	=51	=51	=51
*	*head:regular	*head:x	*	*	*	*
8EEE	4re	4ree	4r	1ryy	4r	E a
.	.	.	.	.	.	.
.	.	.	.	.	.	.
8r	.	.	.	.	.	.
.	.	.	.	.	.	.
.	.	.	.	.	.	.
4GG#	4re	16Ree/	4r	.	4r	.
.	.	16ree	.	.	.	.
.	.	.	.	.	.	.
.	.	8ree	.	.	.	.
.	.	.	.	.	.	.
.	.	.	.	.	.	.
4AA	4re	4ree	12E A	.	12c# e	A 
.	.	.	.	.	.	.
.	.	.	12r	.	12r	.
.	.	.	.	.	.	.
.	.	.	12r	.	12r	.
.	.	.	.	.	.	.
4EE	4re	16Ree/	4r	.	4r	.
.	.	16ree	.	.	.	.
.	.	.	.	.	.	.
.	.	8ree	.	.	.	.
.	.	.	.	.	.	.
.	.	.	.	.	.	.
=52	=52	=52	=52	=52	=52	=52
*	*head:regular	*head:x	*	*	*	*
4AAA	4re	4ree	4r	1ryy	4r	D 
.	.	.	.	.	.	.
.	.	.	.	.	.	.
.	.	.	.	.	.	.
.	.	.	.	.	.	.
.	.	.	.	.	.	.
4CC#	4re	16Ree/	4r	.	12d f# a dd	.
.	.	16ree	.	.	.	.
.	.	.	.	.	12r	.
.	.	8ree	.	.	.	.
.	.	.	.	.	12r	.
.	.	.	.	.	.	.
4DD	4re	4ree	6F#	.	6d a dd aa	.
.	.	.	.	.	.	.
.	.	.	.	.	.	.
.	.	.	.	.	.	.
.	.	.	12r	.	12r	.
.	.	.	.	.	.	.
4AA	4re	16Ree/	4r	.	4r	.
.	.	16ree	.	.	.	.
.	.	.	.	.	.	.
.	.	8ree	.	.	.	.
.	.	.	.	.	.	.
.	.	.	.	.	.	.
=53	=53	=53	=53	=53	=53	=53
*	*head:regular	*head:x	*	*	*	*
4GGG#	4re	4ree	4r	1ryy	4r	G+ >
.	.	.	.	.	.	.
.	.	.	.	.	.	.
.	.	.	.	.	.	.
.	.	.	.	.	.	.
.	.	.	.	.	.	.
4CC	4re	16Ree/	4r	.	4r	.
.	.	16ree	.	.	.	.
.	.	.	.	.	.	.
.	.	8ree	.	.	.	.
.	.	.	.	.	.	.
.	.	.	.	.	.	.
4CC#	4re	4ree	4r	.	4r	C+ @
.	.	.	.	.	.	.
.	.	.	.	.	.	.
.	.	.	.	.	.	.
.	.	.	.	.	.	.
.	.	.	.	.	.	.
6FF	4re	16Ree/	4r	.	4r	.
.	.	16ree	.	.	.	.
.	.	.	.	.	.	.
.	.	8ree	.	.	.	.
12r	.	.	.	.	.	.
.	.	.	.	.	.	.
=54	=54	=54	=54	=54	=54	=54
*	*head:regular	*head:x	*	*	*	*
4DD	4re	4ree	4r	1ryy	4r	D 
.	.	.	.	.	.	.
.	.	.	.	.	.	.
.	.	.	.	.	.	.
.	.	.	.	.	.	.
.	.	.	.	.	.	.
4CC#	4re	16Ree/	4r	.	4r	.
.	.	16ree	.	.	.	.
.	.	.	.	.	.	.
.	.	8ree	.	.	.	.
.	.	.	.	.	.	.
.	.	.	.	.	.	.
4DD	4re	4ree	6A	.	6d f# a	.
.	.	.	.	.	.	.
.	.	.	.	.	.	.
.	.	.	.	.	.	.
.	.	.	12r	.	12r	.
.	.	.	.	.	.	.
8AAA	4re	16Ree/	4F# A	.	4d a	.
.	.	16ree	.	.	.	.
.	.	.	.	.	.	.
8r	.	8ree	.	.	.	.
.	.	.	.	.	.	.
.	.	.	.	.	.	.
=55	=55	=55	=55	=55	=55	=55
*	*head:regular	*head:x	*	*	*	*
8.GGG#	4re	4ree	4r	1ryy	4r	A 
.	.	.	.	.	.	.
.	.	.	.	.	.	.
.	.	.	.	.	.	.
.	.	.	.	.	.	.
16r	.	.	.	.	.	.
4GGG#	4re	16Ree/	4r	.	4r	.
.	.	16ree	.	.	.	.
.	.	.	.	.	.	.
.	.	8ree	.	.	.	.
.	.	.	.	.	.	.
.	.	.	.	.	.	.
4GGG	4re	4ree	4G B	.	4d g	G 
.	.	.	.	.	.	.
.	.	.	.	.	.	.
.	.	.	.	.	.	.
.	.	.	.	.	.	.
.	.	.	.	.	.	.
4AAA#	4re	16Ree/	4r	.	4r	.
.	.	16ree	.	.	.	.
.	.	.	.	.	.	.
.	.	8ree	.	.	.	.
.	.	.	.	.	.	.
.	.	.	.	.	.	.
=56	=56	=56	=56	=56	=56	=56
*	*head:regular	*head:x	*	*	*	*
4AAA#	4re	4ree	4r	1ryy	4r	G 
.	.	.	.	.	.	.
.	.	.	.	.	.	.
.	.	.	.	.	.	.
.	.	.	.	.	.	.
.	.	.	.	.	.	.
4CC#	4re	16Ree/	12F# A#	.	12c# f#	.
.	.	16ree	.	.	.	.
.	.	.	12r	.	12r	.
.	.	8ree	.	.	.	.
.	.	.	12r	.	12r	.
.	.	.	.	.	.	.
8GG#	4re	4ree	4D# G#	.	4c d#	A 
.	.	.	.	.	.	.
.	.	.	.	.	.	.
8r	.	.	.	.	.	.
.	.	.	.	.	.	.
.	.	.	.	.	.	.
8BB	4re	16Ree/	4r	.	4r	.
.	.	16ree	.	.	.	.
.	.	.	.	.	.	.
8r	.	8ree	.	.	.	.
.	.	.	.	.	.	.
.	.	.	.	.	.	.
=57	=57	=57	=57	=57	=57	=57
*	*head:regular	*head:x	*	*	*	*
6BB	4re	4ree	4r	1ryy	4r	B 
.	.	.	.	.	.	.
.	.	.	.	.	.	.
.	.	.	.	.	.	.
12r	.	.	.	.	.	.
.	.	.	.	.	.	.
8.FF#	4re	16Ree/	4r	.	4r	.
.	.	16ree	.	.	.	.
.	.	.	.	.	.	.
.	.	8ree	.	.	.	.
.	.	.	.	.	.	.
16r	.	.	.	.	.	.
4BBB	4re	16Ree/	4r	.	4r	.
.	.	16ree	.	.	.	.
.	.	.	.	.	.	.
.	.	8ree	.	.	.	.
.	.	.	.	.	.	.
.	.	.	.	.	.	.
4AAA#	4re	16Ree/	4r	.	4r	.
.	.	16ree	.	.	.	.
.	.	.	.	.	.	.
.	.	8ree	.	.	.	.
.	.	.	.	.	.	.
.	.	.	.	.	.	.
=58	=58	=58	=58	=58	=58	=58
*	*head:regular	*head:x	*	*	*	*
8BBB	4re	16Ree/	4r	1ryy	4r	B 
.	.	16ree	.	.	.	.
.	.	.	.	.	.	.
8r	.	8ree	.	.	.	.
.	.	.	.	.	.	.
.	.	.	.	.	.	.
4DD#	4re	16Ree/	4r	.	4r	.
.	.	16ree	.	.	.	.
.	.	.	.	.	.	.
.	.	8ree	.	.	.	.
.	.	.	.	.	.	.
.	.	.	.	.	.	.
4BBB	4re	16Ree/	6D# B	.	6f# b ff#	.
.	.	16ree	.	.	.	.
.	.	.	.	.	.	.
.	.	8ree	.	.	.	.
.	.	.	12r	.	12r	.
.	.	.	.	.	.	.
6BBB	4re	16Ree/	4r	.	4r	.
.	.	16ree	.	.	.	.
.	.	.	.	.	.	.
.	.	8ree	.	.	.	.
12r	.	.	.	.	.	.
.	.	.	.	.	.	.
=59	=59	=59	=59	=59	=59	=59
*	*head:regular	*head:x	*	*	*	*
4BBB	4re	16Ree/	4r	1ryy	4r	B 
.	.	16ree	.	.	.	.
.	.	.	.	.	.	.
.	.	8ree	.	.	.	.
.	.	.	.	.	.	.
.	.	.	.	.	.	.
4DD#	4re	16Ree/	4r	.	4r	.
.	.	16ree	.	.	.	.
.	.	.	.	.	.	.
.	.	8ree	.	.	.	.
.	.	.	.	.	.	.
.	.	.	.	.	.	.
4BBB	16Rf\	16Ree/	6B	.	6d# f# b	.
.	16re	16ree	.	.	.	.
.	.	.	.	.	.	.
.	8re	8ree	.	.	.	.
.	.	.	12r	.	12r	.
.	.	.	.	.	.	.
4DD#	4re	16Ree/	4r	.	4r	.
.	.	16ree	.	.	.	.
.	.	.	.	.	.	.
.	.	8ree	.	.	.	.
.	.	.	.	.	.	.
.	.	.	.	.	.	.
=60	=60	=60	=60	=60	=60	=60
*	*head:regular	*head:x	*	*	*	*
4BBB	4re	16Ree/	6D# B	1ryy	6f# b ff#	B 
.	.	16ree	.	.	.	.
.	.	.	.	.	.	.
.	.	8ree	.	.	.	.
.	.	.	12r	.	12r	.
.	.	.	.	.	.	.
4DD#	4re	16Ree/	4r	.	4r	.
.	.	16ree	.	.	.	.
.	.	.	.	.	.	.
.	.	8ree	.	.	.	.
.	.	.	.	.	.	.
.	.	.	.	.	.	.
4FF#	16Rf\	16Ree/	4r	.	4r	.
.	16re	16ree	.	.	.	.
.	.	.	.	.	.	.
.	8re	8ree	.	.	.	.
.	.	.	.	.	.	.
.	.	.	.	.	.	.
4BB	4re	16Ree/	4r	.	4r	.
.	.	16ree	.	.	.	.
.	.	.	.	.	.	.
.	.	8ree	.	.	.	.
.	.	.	.	.	.	.
.	.	.	.	.	.	.
=61	=61	=61	=61	=61	=61	=61
*	*head:regular	*head:x	*	*	*	*
4AAA#	4re	12Ree/	4A#	1ryy	4d f a#	B 
.	.	.	.	.	.	.
.	.	12ree	.	.	.	.
.	.	.	.	.	.	.
.	.	12ree	.	.	.	.
.	.	.	.	.	.	.
4DD	4re	12Ree/	4r	.	4r	.
.	.	.	.	.	.	.
.	.	12ree	.	.	.	.
.	.	.	.	.	.	.
.	.	12ree	.	.	.	.
.	.	.	.	.	.	.
4DD#	4re	16Ree/	4G A#	.	4d# a#	E 
.	.	16ree	.	.	.	.
.	.	.	.	.	.	.
.	.	8ree	.	.	.	.
.	.	.	.	.	.	.
.	.	.	.	.	.	.
6AAA#	4re	12Ree/	4r	.	4r	.
.	.	.	.	.	.	.
.	.	12ree	.	.	.	.
.	.	.	.	.	.	.
12r	.	12ree	.	.	.	.
.	.	.	.	.	.	.
=62	=62	=62	=62	=62	=62	=62
*	*head:regular	*head:x	*	*	*	*
4GGG#	4re	12Ree/	4r	1ryy	4r	A 
.	.	.	.	.	.	.
.	.	12ree	.	.	.	.
.	.	.	.	.	.	.
.	.	12ree	.	.	.	.
.	.	.	.	.	.	.
4CC	4re	12Ree/	4r	.	4r	.
.	.	.	.	.	.	.
.	.	12ree	.	.	.	.
.	.	.	.	.	.	.
.	.	12ree	.	.	.	.
.	.	.	.	.	.	.
4CC#	4re	12Ree/	4F G#	.	4c# g#	D 
.	.	.	.	.	.	.
.	.	12ree	.	.	.	.
.	.	.	.	.	.	.
.	.	12ree	.	.	.	.
.	.	.	.	.	.	.
8.CC#	4re	12Ree/	4r	.	4r	.
.	.	.	.	.	.	.
.	.	12ree	.	.	.	.
.	.	.	.	.	.	.
.	.	12ree	.	.	.	.
16r	.	.	.	.	.	.
=63	=63	=63	=63	=63	=63	=63
*	*head:regular	*head:x	*	*	*	*
8.DD	4re	12Ree/	4D F# A	1ryy	4d	D 
.	.	.	.	.	.	.
.	.	12ree	.	.	.	.
.	.	.	.	.	.	.
.	.	12ree	.	.	.	.
16r	.	.	.	.	.	.
4AAA	4re	16Ree/	4r	.	4r	.
.	.	16ree	.	.	.	.
.	.	.	.	.	.	.
.	.	8ree	.	.	.	.
.	.	.	.	.	.	.
.	.	.	.	.	.	.
8DD#	4re	12Ree/	6G A#	.	6d# a#	E 
.	.	.	.	.	.	.
.	.	12ree	.	.	.	.
8r	.	.	.	.	.	.
.	.	12ree	12r	.	12r	.
.	.	.	.	.	.	.
4DD	4re	16Ree/	4r	.	4r	D 
.	.	16ree	.	.	.	.
.	.	.	.	.	.	.
.	.	8ree	.	.	.	.
.	.	.	.	.	.	.
.	.	.	.	.	.	.
=64	=64	=64	=64	=64	=64	=64
*	*head:regular	*head:x	*	*	*	*
4CC#	4re	12Ree/	6F G#	1ryy	6c# g#	D 
.	.	.	.	.	.	.
.	.	12ree	.	.	.	.
.	.	.	.	.	.	.
.	.	12ree	12r	.	12r	.
.	.	.	.	.	.	.
4CC	4re	16Ree/	4r	.	4r	.
.	.	16ree	.	.	.	.
.	.	.	.	.	.	.
.	.	8ree	.	.	.	.
.	.	.	.	.	.	.
.	.	.	.	.	.	.
8CC#	4re	16Ree/	4C# F G#	.	4c#	.
.	.	16ree	.	.	.	.
.	.	.	.	.	.	.
8r	.	8ree	.	.	.	.
.	.	.	.	.	.	.
.	.	.	.	.	.	.
4r	4re	16Ree/	4r	.	4r	.
.	.	16ree	.	.	.	.
.	.	.	.	.	.	.
.	.	8ree	.	.	.	.
.	.	.	.	.	.	.
.	.	.	.	.	.	.
=65	=65	=65	=65	=65	=65	=65
*	*head:regular	*head:x	*	*	*	*
4BBB	4re	4ree	4r	1ryy	4r	B 
.	.	.	.	.	.	.
.	.	.	.	.	.	.
.	.	.	.	.	.	.
.	.	.	.	.	.	.
.	.	.	.	.	.	.
4BBB	4re	12Ree/	4r	.	4r	.
.	.	.	.	.	.	.
.	.	12ree	.	.	.	.
.	.	.	.	.	.	.
.	.	12ree	.	.	.	.
.	.	.	.	.	.	.
4BBB	12Rf\	12Ree/	4r	.	4r	.
.	.	.	.	.	.	.
.	12re	12ree	.	.	.	.
.	.	.	.	.	.	.
.	12re	12ree	.	.	.	.
.	.	.	.	.	.	.
4DD#	4re	12Ree/	4r	.	4r	.
.	.	.	.	.	.	.
.	.	12ree	.	.	.	.
.	.	.	.	.	.	.
.	.	12ree	.	.	.	.
.	.	.	.	.	.	.
=66	=66	=66	=66	=66	=66	=66
*	*head:regular	*head:x	*	*	*	*
4BB	12Rf\	12Ree/	4r	1ryy	4r	B 
.	.	.	.	.	.	.
.	12re	12ree	.	.	.	.
.	.	.	.	.	.	.
.	12re	12ree	.	.	.	.
.	.	.	.	.	.	.
4D#	4re	16Ree/	4r	.	4r	.
.	.	16ree	.	.	.	.
.	.	.	.	.	.	.
.	.	8ree	.	.	.	.
.	.	.	.	.	.	.
.	.	.	.	.	.	.
4FF#	4re	12Ree/	6D# F# B	.	6f#	.
.	.	.	.	.	.	.
.	.	12ree	.	.	.	.
.	.	.	.	.	.	.
.	.	12ree	12r	.	12r	.
.	.	.	.	.	.	.
4DD#	4re	12Ree/	4r	.	4r	.
.	.	.	.	.	.	.
.	.	12ree	.	.	.	.
.	.	.	.	.	.	.
.	.	12ree	.	.	.	.
.	.	.	.	.	.	.
=67	=67	=67	=67	=67	=67	=67
*	*head:regular	*head:x	*	*	*	*
4BBB	4re	16Ree/	4r	1ryy	4r	B 
.	.	16ree	.	.	.	.
.	.	.	.	.	.	.
.	.	8ree	.	.	.	.
.	.	.	.	.	.	.
.	.	.	.	.	.	.
4FFF#	4re	12Ree/	4r	.	4r	.
.	.	.	.	.	.	.
.	.	12ree	.	.	.	.
.	.	.	.	.	.	.
.	.	12ree	.	.	.	.
.	.	.	.	.	.	.
4FFF#	4re	12Ree/	4r	.	4r	.
.	.	.	.	.	.	.
.	.	12ree	.	.	.	.
.	.	.	.	.	.	.
.	.	12ree	.	.	.	.
.	.	.	.	.	.	.
4BBB	4re	12Ree/	4r	.	4r	.
.	.	.	.	.	.	.
.	.	12ree	.	.	.	.
.	.	.	.	.	.	.
.	.	12ree	.	.	.	.
.	.	.	.	.	.	.
=68	=68	=68	=68	=68	=68	=68
*	*head:regular	*head:x	*	*	*	*
4BBB	4re	12Ree/	6F# B	1ryy	6d# f#	B 
.	.	.	.	.	.	.
.	.	12ree	.	.	.	.
.	.	.	.	.	.	.
.	.	12ree	12r	.	12r	.
.	.	.	.	.	.	.
4FFF#	4re	12Ree/	12F# B	.	12d# f#	.
.	.	.	.	.	.	.
.	.	12ree	12r	.	12r	.
.	.	.	.	.	.	.
.	.	12ree	12r	.	12r	.
.	.	.	.	.	.	.
4BBB	4re	12Ree/	4r	.	4r	.
.	.	.	.	.	.	.
.	.	12ree	.	.	.	.
.	.	.	.	.	.	.
.	.	12ree	.	.	.	.
.	.	.	.	.	.	.
4FF#	4re	12Ree/	4r	.	4r	.
.	.	.	.	.	.	.
.	.	12ree	.	.	.	.
.	.	.	.	.	.	.
.	.	12ree	.	.	.	.
.	.	.	.	.	.	.
=69	=69	=69	=69	=69	=69	=69
*	*head:regular	*head:x	*	*	*	*
4AAA#	4re	12Ree/	4r	1ryy	4r	B 
.	.	.	.	.	.	.
.	.	12ree	.	.	.	.
.	.	.	.	.	.	.
.	.	12ree	.	.	.	.
.	.	.	.	.	.	.
4FF	4re	12Ree/	4F A#	.	4d f	.
.	.	.	.	.	.	.
.	.	12ree	.	.	.	.
.	.	.	.	.	.	.
.	.	12ree	.	.	.	.
.	.	.	.	.	.	.
4DD#	4re	12Ree/	4r	.	4r	E 
.	.	.	.	.	.	.
.	.	12ree	.	.	.	.
.	.	.	.	.	.	.
.	.	12ree	.	.	.	.
.	.	.	.	.	.	.
4AAA#	4re	12Ree/	4r	.	4r	.
.	.	.	.	.	.	.
.	.	12ree	.	.	.	.
.	.	.	.	.	.	.
.	.	12ree	.	.	.	.
.	.	.	.	.	.	.
=70	=70	=70	=70	=70	=70	=70
*	*head:regular	*head:x	*	*	*	*
4GGG#	4re	12Ree/	4r	1ryy	4r	A 
.	.	.	.	.	.	.
.	.	12ree	.	.	.	.
.	.	.	.	.	.	.
.	.	12ree	.	.	.	.
.	.	.	.	.	.	.
4CC	4re	12Ree/	4r	.	4r	.
.	.	.	.	.	.	.
.	.	12ree	.	.	.	.
.	.	.	.	.	.	.
.	.	12ree	.	.	.	.
.	.	.	.	.	.	.
4CC#	4re	12Ree/	6C# F G#	.	6c#	D 
.	.	.	.	.	.	.
.	.	12ree	.	.	.	.
.	.	.	.	.	.	.
.	.	12ree	12r	.	12r	.
.	.	.	.	.	.	.
4FF	4re	12Ree/	4r	.	4r	.
.	.	.	.	.	.	.
.	.	12ree	.	.	.	.
.	.	.	.	.	.	.
.	.	12ree	.	.	.	.
.	.	.	.	.	.	.
=71	=71	=71	=71	=71	=71	=71
*	*head:regular	*head:x	*	*	*	*
4DD	12Rf\	12Ree/	4D F# A	1ryy	4d	D 
.	.	.	.	.	.	.
.	12re	12ree	.	.	.	.
.	.	.	.	.	.	.
.	12re	12ree	.	.	.	.
.	.	.	.	.	.	.
4DD#	4re	12Ree/	4r	.	4r	.
.	.	.	.	.	.	.
.	.	12ree	.	.	.	.
.	.	.	.	.	.	.
.	.	12ree	.	.	.	.
.	.	.	.	.	.	.
4DD#	4re	12Ree/	4r	.	4r	E 
.	.	.	.	.	.	.
.	.	12ree	.	.	.	.
.	.	.	.	.	.	.
.	.	12ree	.	.	.	.
.	.	.	.	.	.	.
4AAA	12Rf\	16Ree/	4r	.	4r	D 
.	.	16ree	.	.	.	.
.	12re	.	.	.	.	.
.	.	8ree	.	.	.	.
.	12re	.	.	.	.	.
.	.	.	.	.	.	.
=72	=72	=72	=72	=72	=72	=72
*	*head:regular	*head:x	*	*	*	*
4CC#	4re	12Ree/	4r	1ryy	4r	D 
.	.	.	.	.	.	.
.	.	12ree	.	.	.	.
.	.	.	.	.	.	.
.	.	12ree	.	.	.	.
.	.	.	.	.	.	.
4GGG#	4re	12Ree/	6G#	.	6c# f g#	.
.	.	.	.	.	.	.
.	.	12ree	.	.	.	.
.	.	.	.	.	.	.
.	.	12ree	12r	.	12r	.
.	.	.	.	.	.	.
8CC#	4re	16Ree/	4C# F G#	.	4c#	.
.	.	16ree	.	.	.	.
.	.	.	.	.	.	.
8r	.	8ree	.	.	.	.
.	.	.	.	.	.	.
.	.	.	.	.	.	.
4r	4re	16Ree/	4r	.	4r	.
.	.	16ree	.	.	.	.
.	.	.	.	.	.	.
.	.	8ree	.	.	.	.
.	.	.	.	.	.	.
.	.	.	.	.	.	.
=73	=73	=73	=73	=73	=73	=73
*	*head:regular	*head:x	*	*	*	*
4BBB	4re	4ree	4r	1ryy	4r	B 
.	.	.	.	.	.	.
.	.	.	.	.	.	.
.	.	.	.	.	.	.
.	.	.	.	.	.	.
.	.	.	.	.	.	.
4DD#	4re	16Ree/	4r	.	4r	.
.	.	16ree	.	.	.	.
.	.	.	.	.	.	.
.	.	8ree	.	.	.	.
.	.	.	.	.	.	.
.	.	.	.	.	.	.
6BBB	4re	12Ree/	4B	.	4d# f# b	.
.	.	.	.	.	.	.
.	.	12ree	.	.	.	.
.	.	.	.	.	.	.
12r	.	12ree	.	.	.	.
.	.	.	.	.	.	.
4FFF#	4re	16Ree/	4r	.	4r	.
.	.	16ree	.	.	.	.
.	.	.	.	.	.	.
.	.	8ree	.	.	.	.
.	.	.	.	.	.	.
.	.	.	.	.	.	.
=74	=74	=74	=74	=74	=74	=74
*	*head:regular	*head:x	*	*	*	*
4BBB	4re	16Ree/	4B	1ryy	4d# f# b	B 
.	.	16ree	.	.	.	.
.	.	.	.	.	.	.
.	.	8ree	.	.	.	.
.	.	.	.	.	.	.
.	.	.	.	.	.	.
4BBB	12Rf\	16Ree/	4r	.	4r	.
.	.	16ree	.	.	.	.
.	12re	.	.	.	.	.
.	.	8ree	.	.	.	.
.	12re	.	.	.	.	.
.	.	.	.	.	.	.
4BBB	4re	12Ree/	4D# B	.	4f# b ff#	.
.	.	.	.	.	.	.
.	.	12ree	.	.	.	.
.	.	.	.	.	.	.
.	.	12ree	.	.	.	.
.	.	.	.	.	.	.
8.FFF#	4re	12Ree/	4r	.	4r	.
.	.	.	.	.	.	.
.	.	12ree	.	.	.	.
.	.	.	.	.	.	.
.	.	12ree	.	.	.	.
16r	.	.	.	.	.	.
=75	=75	=75	=75	=75	=75	=75
*	*head:regular	*head:x	*	*	*	*
8BB	4re	16Ree/	4F# B	1ryy	4d# b ff# bb	B 
.	.	16ree	.	.	.	.
.	.	.	.	.	.	.
8r	.	8ree	.	.	.	.
.	.	.	.	.	.	.
.	.	.	.	.	.	.
8.FF#	4re	12Ree/	4r	.	4r	.
.	.	.	.	.	.	.
.	.	12ree	.	.	.	.
.	.	.	.	.	.	.
.	.	12ree	.	.	.	.
16r	.	.	.	.	.	.
4FF#	4re	12Ree/	4B	.	4d# f# b	.
.	.	.	.	.	.	.
.	.	12ree	.	.	.	.
.	.	.	.	.	.	.
.	.	12ree	.	.	.	.
.	.	.	.	.	.	.
4BB	4re	16Ree/	4r	.	4r	.
.	.	16ree	.	.	.	.
.	.	.	.	.	.	.
.	.	8ree	.	.	.	.
.	.	.	.	.	.	.
.	.	.	.	.	.	.
=76	=76	=76	=76	=76	=76	=76
*	*head:regular	*head:x	*	*	*	*
4BBB	4re	12Ree/	4F# B	1ryy	4d# f#	B 
.	.	.	.	.	.	.
.	.	12ree	.	.	.	.
.	.	.	.	.	.	.
.	.	12ree	.	.	.	.
.	.	.	.	.	.	.
4BBB	4re	12Ree/	4r	.	4r	.
.	.	.	.	.	.	.
.	.	12ree	.	.	.	.
.	.	.	.	.	.	.
.	.	12ree	.	.	.	.
.	.	.	.	.	.	.
4BBB	4re	12Ree/	4F# B	.	4d# b ff# bb	.
.	.	.	.	.	.	.
.	.	12ree	.	.	.	.
.	.	.	.	.	.	.
.	.	12ree	.	.	.	.
.	.	.	.	.	.	.
4FFF#	4re	12Ree/	4r	.	4r	.
.	.	.	.	.	.	.
.	.	12ree	.	.	.	.
.	.	.	.	.	.	.
.	.	12ree	.	.	.	.
.	.	.	.	.	.	.
=77	=77	=77	=77	=77	=77	=77
*	*head:regular	*head:x	*	*	*	*
4AAA#	12Rf\	12Ree/	4F A#	1ryy	4d f	B 
.	.	.	.	.	.	.
.	12re	12ree	.	.	.	.
.	.	.	.	.	.	.
.	12re	12ree	.	.	.	.
.	.	.	.	.	.	.
4DD	4re	12Ree/	4r	.	4r	.
.	.	.	.	.	.	.
.	.	12ree	.	.	.	.
.	.	.	.	.	.	.
.	.	12ree	.	.	.	.
.	.	.	.	.	.	.
4DD#	4re	12Ree/	4r	.	4r	E 
.	.	.	.	.	.	.
.	.	12ree	.	.	.	.
.	.	.	.	.	.	.
.	.	12ree	.	.	.	.
.	.	.	.	.	.	.
4AAA#	4re	12Ree/	4r	.	4r	.
.	.	.	.	.	.	.
.	.	12ree	.	.	.	.
.	.	.	.	.	.	.
.	.	12ree	.	.	.	.
.	.	.	.	.	.	.
=78	=78	=78	=78	=78	=78	=78
*	*head:regular	*head:x	*	*	*	*
4GGG#	12Rf\	12Ree/	4r	1ryy	4r	A 
.	.	.	.	.	.	.
.	12re	12ree	.	.	.	.
.	.	.	.	.	.	.
.	12re	12ree	.	.	.	.
.	.	.	.	.	.	.
4CC	4re	12Ree/	4r	.	4r	.
.	.	.	.	.	.	.
.	.	12ree	.	.	.	.
.	.	.	.	.	.	.
.	.	12ree	.	.	.	.
.	.	.	.	.	.	.
4GG#	4re	12Ree/	6G#	.	6c# f g#	D 
.	.	.	.	.	.	.
.	.	12ree	.	.	.	.
.	.	.	.	.	.	.
.	.	12ree	12r	.	12r	.
.	.	.	.	.	.	.
4DD#	4re	16Ree/	4r	.	4r	.
.	.	16ree	.	.	.	.
.	.	.	.	.	.	.
.	.	8ree	.	.	.	.
.	.	.	.	.	.	.
.	.	.	.	.	.	.
=79	=79	=79	=79	=79	=79	=79
*	*head:regular	*head:x	*	*	*	*
4DD	4re	12Ree/	4r	1ryy	4r	D 
.	.	.	.	.	.	.
.	.	12ree	.	.	.	.
.	.	.	.	.	.	.
.	.	12ree	.	.	.	.
.	.	.	.	.	.	.
4DD#	4re	16Ree/	4r	.	4r	.
.	.	16ree	.	.	.	.
.	.	.	.	.	.	.
.	.	8ree	.	.	.	.
.	.	.	.	.	.	.
.	.	.	.	.	.	.
4DD#	4re	12Ree/	6D# G A#	.	6d#	E 
.	.	.	.	.	.	.
.	.	12ree	.	.	.	.
.	.	.	.	.	.	.
.	.	12ree	12r	.	12r	.
.	.	.	.	.	.	.
4AAA	4re	12Ree/	4r	.	4r	D 
.	.	.	.	.	.	.
.	.	12ree	.	.	.	.
.	.	.	.	.	.	.
.	.	12ree	.	.	.	.
.	.	.	.	.	.	.
=80	=80	=80	=80	=80	=80	=80
*	*head:regular	*head:x	*	*	*	*
4CC#	4re	12Ree/	6C# F G#	1ryy	6c#	D 
.	.	.	.	.	.	.
.	.	12ree	.	.	.	.
.	.	.	.	.	.	.
.	.	12ree	12r	.	12r	.
.	.	.	.	.	.	.
4GGG#	4re	12Ree/	4r	.	4r	.
.	.	.	.	.	.	.
.	.	12ree	.	.	.	.
.	.	.	.	.	.	.
.	.	12ree	.	.	.	.
.	.	.	.	.	.	.
8CC#	4re	4ree	4F G#	.	4c# g#	.
.	.	.	.	.	.	.
.	.	.	.	.	.	.
8r	.	.	.	.	.	.
.	.	.	.	.	.	.
.	.	.	.	.	.	.
8GGG#	16Rf\	16Ree/	4r	.	4r	.
.	16re	16ree	.	.	.	.
.	.	.	.	.	.	.
8r	8re	8ree	.	.	.	.
.	.	.	.	.	.	.
.	.	.	.	.	.	.
=81	=81	=81	=81	=81	=81	=81
*	*head:regular	*head:x	*	*	*	*
6DD#	4re	4ree	4r	1ryy	4r	E a
.	.	.	.	.	.	.
.	.	.	.	.	.	.
.	.	.	.	.	.	.
12r	.	.	.	.	.	.
.	.	.	.	.	.	.
8.CC#	4re	16Ree/	4r	.	4r	.
.	.	16ree	.	.	.	.
.	.	.	.	.	.	.
.	.	8ree	.	.	.	.
.	.	.	.	.	.	.
16r	.	.	.	.	.	.
4CC	4re	4ree	4r	.	4r	A @
.	.	.	.	.	.	.
.	.	.	.	.	.	.
.	.	.	.	.	.	.
.	.	.	.	.	.	.
.	.	.	.	.	.	.
4CC#	4re	16Ree/	4r	.	4r	.
.	.	16ree	.	.	.	.
.	.	.	.	.	.	.
.	.	8ree	.	.	.	.
.	.	.	.	.	.	.
.	.	.	.	.	.	.
=82	=82	=82	=82	=82	=82	=82
*	*head:regular	*head:x	*	*	*	*
8CC#	12Rf\	4ree	6F	1ryy	6c# g# cc# gg#	D 
.	.	.	.	.	.	.
.	12re	.	.	.	.	.
8r	.	.	.	.	.	.
.	12re	.	12r	.	12r	.
.	.	.	.	.	.	.
4GGG#	4re	16Ree/	4r	.	4r	.
.	.	16ree	.	.	.	.
.	.	.	.	.	.	.
.	.	8ree	.	.	.	.
.	.	.	.	.	.	.
.	.	.	.	.	.	.
4CC#	12Rf\	4ree	4r	.	4r	.
.	.	.	.	.	.	.
.	12re	.	.	.	.	.
.	.	.	.	.	.	.
.	12re	.	.	.	.	.
.	.	.	.	.	.	.
6FFF	4re	16Ree/	4r	.	4r	.
.	.	16ree	.	.	.	.
.	.	.	.	.	.	.
.	.	8ree	.	.	.	.
12r	.	.	.	.	.	.
.	.	.	.	.	.	.
=83	=83	=83	=83	=83	=83	=83
*	*head:regular	*head:x	*	*	*	*
4EEE	12Rf\	4ree	4r	1ryy	4r	E a
.	.	.	.	.	.	.
.	12re	.	.	.	.	.
.	.	.	.	.	.	.
.	12re	.	.	.	.	.
.	.	.	.	.	.	.
4GG#	4re	16Ree/	4r	.	4r	.
.	.	16ree	.	.	.	.
.	.	.	.	.	.	.
.	.	8ree	.	.	.	.
.	.	.	.	.	.	.
.	.	.	.	.	.	.
4AA	4re	4ree	4r	.	4r	A 
.	.	.	.	.	.	.
.	.	.	.	.	.	.
.	.	.	.	.	.	.
.	.	.	.	.	.	.
.	.	.	.	.	.	.
4C#	4re	16Ree/	4r	.	4r	.
.	.	16ree	.	.	.	.
.	.	.	.	.	.	.
.	.	8ree	.	.	.	.
.	.	.	.	.	.	.
.	.	.	.	.	.	.
=84	=84	=84	=84	=84	=84	=84
*	*head:regular	*head:x	*	*	*	*
4D	12Rf\	4ree	6A	1ryy	6d f# a	D 
.	.	.	.	.	.	.
.	12re	.	.	.	.	.
.	.	.	.	.	.	.
.	12re	.	12r	.	12r	.
.	.	.	.	.	.	.
4AA	4re	16Ree/	4r	.	4r	.
.	.	16ree	.	.	.	.
.	.	.	.	.	.	.
.	.	8ree	.	.	.	.
.	.	.	.	.	.	.
.	.	.	.	.	.	.
4DD	12Rf\	4ree	4r	.	4r	.
.	.	.	.	.	.	.
.	12re	.	.	.	.	.
.	.	.	.	.	.	.
.	12re	.	.	.	.	.
.	.	.	.	.	.	.
4AAA	12Rf\	16Ree/	6D F# A	.	6d	.
.	.	16ree	.	.	.	.
.	12re	.	.	.	.	.
.	.	8ree	.	.	.	.
.	12re	.	12r	.	12r	.
.	.	.	.	.	.	.
=85	=85	=85	=85	=85	=85	=85
*	*head:regular	*head:x	*	*	*	*
6GGG#	4re	4ree	4r	1ryy	4r	G+ >
.	.	.	.	.	.	.
.	.	.	.	.	.	.
.	.	.	.	.	.	.
12r	.	.	.	.	.	.
.	.	.	.	.	.	.
8.DD	4re	16Ree/	4r	.	4r	.
.	.	16ree	.	.	.	.
.	.	.	.	.	.	.
.	.	8ree	.	.	.	.
.	.	.	.	.	.	.
16r	.	.	.	.	.	.
4CC#	4re	4ree	4C# F A	.	4c#	C+ @
.	.	.	.	.	.	.
.	.	.	.	.	.	.
.	.	.	.	.	.	.
.	.	.	.	.	.	.
.	.	.	.	.	.	.
4AAA	4re	16Ree/	4r	.	4r	.
.	.	16ree	.	.	.	.
.	.	.	.	.	.	.
.	.	8ree	.	.	.	.
.	.	.	.	.	.	.
.	.	.	.	.	.	.
=86	=86	=86	=86	=86	=86	=86
*	*head:regular	*head:x	*	*	*	*
8DD	4re	4ree	4r	1ryy	4r	D 
.	.	.	.	.	.	.
.	.	.	.	.	.	.
8r	.	.	.	.	.	.
.	.	.	.	.	.	.
.	.	.	.	.	.	.
4GGG	4re	16Ree/	4r	.	4r	.
.	.	16ree	.	.	.	.
.	.	.	.	.	.	.
.	.	8ree	.	.	.	.
.	.	.	.	.	.	.
.	.	.	.	.	.	.
4FFF#	4re	4ree	6F# A	.	6d a	.
.	.	.	.	.	.	.
.	.	.	.	.	.	.
.	.	.	.	.	.	.
.	.	.	12r	.	12r	.
.	.	.	.	.	.	.
6GGG#	4re	16Ree/	4r	.	4r	.
.	.	16ree	.	.	.	.
.	.	.	.	.	.	.
.	.	8ree	.	.	.	.
12r	.	.	.	.	.	.
.	.	.	.	.	.	.
=87	=87	=87	=87	=87	=87	=87
*	*head:regular	*head:x	*	*	*	*
4GGG#	4re	4ree	4r	1ryy	4r	A 
.	.	.	.	.	.	.
.	.	.	.	.	.	.
.	.	.	.	.	.	.
.	.	.	.	.	.	.
.	.	.	.	.	.	.
4FF#	4re	16Ree/	4r	.	4r	.
.	.	16ree	.	.	.	.
.	.	.	.	.	.	.
.	.	8ree	.	.	.	.
.	.	.	.	.	.	.
.	.	.	.	.	.	.
4GG	4re	4ree	4D G B	.	4g dd gg	G 
.	.	.	.	.	.	.
.	.	.	.	.	.	.
.	.	.	.	.	.	.
.	.	.	.	.	.	.
.	.	.	.	.	.	.
4GGG	4re	16Ree/	4r	.	4r	.
.	.	16ree	.	.	.	.
.	.	.	.	.	.	.
.	.	8ree	.	.	.	.
.	.	.	.	.	.	.
.	.	.	.	.	.	.
=88	=88	=88	=88	=88	=88	=88
*	*head:regular	*head:x	*	*	*	*
4FFF#	4re	4ree	4r	1ryy	4r	G 
.	.	.	.	.	.	.
.	.	.	.	.	.	.
.	.	.	.	.	.	.
.	.	.	.	.	.	.
.	.	.	.	.	.	.
4CC#	4re	16Ree/	4C# F# A#	.	4c#	.
.	.	16ree	.	.	.	.
.	.	.	.	.	.	.
.	.	8ree	.	.	.	.
.	.	.	.	.	.	.
.	.	.	.	.	.	.
8GGG#	4re	4ree	4D# G#	.	4c d#	A 
.	.	.	.	.	.	.
.	.	.	.	.	.	.
8r	.	.	.	.	.	.
.	.	.	.	.	.	.
.	.	.	.	.	.	.
8BBB	4re	16Ree/	4r	.	4r	.
.	.	16ree	.	.	.	.
.	.	.	.	.	.	.
8r	.	8ree	.	.	.	.
.	.	.	.	.	.	.
.	.	.	.	.	.	.
=89	=89	=89	=89	=89	=89	=89
*	*head:regular	*head:x	*	*	*	*
4r	4re	4ree	4r	1ryy	4r	B 
.	.	.	.	.	.	.
.	.	.	.	.	.	.
.	.	.	.	.	.	.
.	.	.	.	.	.	.
.	.	.	.	.	.	.
4r	4re	12Ree/	4F# B	.	4d# b ff# bb	.
.	.	.	.	.	.	.
.	.	12ree	.	.	.	.
.	.	.	.	.	.	.
.	.	12ree	.	.	.	.
.	.	.	.	.	.	.
4BBB	12Rf\	12Ree/	4r	.	4r	.
.	.	.	.	.	.	.
.	12re	12ree	.	.	.	.
.	.	.	.	.	.	.
.	12re	12ree	.	.	.	.
.	.	.	.	.	.	.
4FF#	4re	12Ree/	4r	.	4r	.
.	.	.	.	.	.	.
.	.	12ree	.	.	.	.
.	.	.	.	.	.	.
.	.	12ree	.	.	.	.
.	.	.	.	.	.	.
=90	=90	=90	=90	=90	=90	=90
*	*head:regular	*head:x	*	*	*	*
4FF#	4re	12Ree/	4r	1ryy	4r	B 
.	.	.	.	.	.	.
.	.	12ree	.	.	.	.
.	.	.	.	.	.	.
.	.	12ree	.	.	.	.
.	.	.	.	.	.	.
4DD#	4re	12Ree/	4r	.	4r	.
.	.	.	.	.	.	.
.	.	12ree	.	.	.	.
.	.	.	.	.	.	.
.	.	12ree	.	.	.	.
.	.	.	.	.	.	.
4BBB	4re	12Ree/	6F# B	.	6d# f#	.
.	.	.	.	.	.	.
.	.	12ree	.	.	.	.
.	.	.	.	.	.	.
.	.	12ree	12r	.	12r	.
.	.	.	.	.	.	.
4DD#	4re	12Ree/	4r	.	4r	.
.	.	.	.	.	.	.
.	.	12ree	.	.	.	.
.	.	.	.	.	.	.
.	.	12ree	.	.	.	.
.	.	.	.	.	.	.
=91	=91	=91	=91	=91	=91	=91
*	*head:regular	*head:x	*	*	*	*
4BBB	4re	12Ree/	4D# F# B	1ryy	4f#	B 
.	.	.	.	.	.	.
.	.	12ree	.	.	.	.
.	.	.	.	.	.	.
.	.	12ree	.	.	.	.
.	.	.	.	.	.	.
6FFF#	12Rf\	16Ree/	4r	.	4r	.
.	.	16ree	.	.	.	.
.	12re	.	.	.	.	.
.	.	8ree	.	.	.	.
12r	12re	.	.	.	.	.
.	.	.	.	.	.	.
4BBB	4re	12Ree/	4r	.	4r	.
.	.	.	.	.	.	.
.	.	12ree	.	.	.	.
.	.	.	.	.	.	.
.	.	12ree	.	.	.	.
.	.	.	.	.	.	.
4BBB	4re	12Ree/	4r	.	4r	.
.	.	.	.	.	.	.
.	.	12ree	.	.	.	.
.	.	.	.	.	.	.
.	.	12ree	.	.	.	.
.	.	.	.	.	.	.
=92	=92	=92	=92	=92	=92	=92
*	*head:regular	*head:x	*	*	*	*
4BBB	4re	12Ree/	4r	1ryy	4r	B 
.	.	.	.	.	.	.
.	.	12ree	.	.	.	.
.	.	.	.	.	.	.
.	.	12ree	.	.	.	.
.	.	.	.	.	.	.
4BBB	12Rf\	16Ree/	6B	.	6d# f# b	.
.	.	16ree	.	.	.	.
.	12re	.	.	.	.	.
.	.	8ree	.	.	.	.
.	12re	.	12r	.	12r	.
.	.	.	.	.	.	.
4BBB	4re	12Ree/	6B	.	6d# f# b	.
.	.	.	.	.	.	.
.	.	12ree	.	.	.	.
.	.	.	.	.	.	.
.	.	12ree	12r	.	12r	.
.	.	.	.	.	.	.
4FFF#	4re	12Ree/	4r	.	4r	.
.	.	.	.	.	.	.
.	.	12ree	.	.	.	.
.	.	.	.	.	.	.
.	.	12ree	.	.	.	.
.	.	.	.	.	.	.
=93	=93	=93	=93	=93	=93	=93
*	*head:regular	*head:x	*	*	*	*
6AA#	12Rf\	12Ree/	4r	1ryy	4r	B 
.	.	.	.	.	.	.
.	12re	12ree	.	.	.	.
.	.	.	.	.	.	.
12r	12re	12ree	.	.	.	.
.	.	.	.	.	.	.
8.D	4re	12Ree/	4r	.	4r	.
.	.	.	.	.	.	.
.	.	12ree	.	.	.	.
.	.	.	.	.	.	.
.	.	12ree	.	.	.	.
16r	.	.	.	.	.	.
4DD#	4re	12Ree/	4r	.	4r	E 
.	.	.	.	.	.	.
.	.	12ree	.	.	.	.
.	.	.	.	.	.	.
.	.	12ree	.	.	.	.
.	.	.	.	.	.	.
4GG	4re	12Ree/	4r	.	4r	.
.	.	.	.	.	.	.
.	.	12ree	.	.	.	.
.	.	.	.	.	.	.
.	.	12ree	.	.	.	.
.	.	.	.	.	.	.
=94	=94	=94	=94	=94	=94	=94
*	*head:regular	*head:x	*	*	*	*
8GGG#	12Rf\	12Ree/	4r	1ryy	4r	A 
.	.	.	.	.	.	.
.	12re	12ree	.	.	.	.
8r	.	.	.	.	.	.
.	12re	12ree	.	.	.	.
.	.	.	.	.	.	.
4CC	4re	12Ree/	12D# G#	.	12c d#	.
.	.	.	.	.	.	.
.	.	12ree	12r	.	12r	.
.	.	.	.	.	.	.
.	.	12ree	12r	.	12r	.
.	.	.	.	.	.	.
4CC#	4re	12Ree/	4C# F G#	.	4c#	D 
.	.	.	.	.	.	.
.	.	12ree	.	.	.	.
.	.	.	.	.	.	.
.	.	12ree	.	.	.	.
.	.	.	.	.	.	.
6DD	4re	16Ree/	4r	.	4r	.
.	.	16ree	.	.	.	.
.	.	.	.	.	.	.
.	.	8ree	.	.	.	.
12r	.	.	.	.	.	.
.	.	.	.	.	.	.
=95	=95	=95	=95	=95	=95	=95
*	*head:regular	*head:x	*	*	*	*
4r	4re	12Ree/	4r	1ryy	4r	D 
.	.	.	.	.	.	.
.	.	12ree	.	.	.	.
.	.	.	.	.	.	.
.	.	12ree	.	.	.	.
.	.	.	.	.	.	.
4DD	4re	16Ree/	4r	.	4r	.
.	.	16ree	.	.	.	.
.	.	.	.	.	.	.
.	.	8ree	.	.	.	.
.	.	.	.	.	.	.
.	.	.	.	.	.	.
4DD#	4re	12Ree/	4r	.	4r	E 
.	.	.	.	.	.	.
.	.	12ree	.	.	.	.
.	.	.	.	.	.	.
.	.	12ree	.	.	.	.
.	.	.	.	.	.	.
4DD	4re	12Ree/	4r	.	4r	D 
.	.	.	.	.	.	.
.	.	12ree	.	.	.	.
.	.	.	.	.	.	.
.	.	12ree	.	.	.	.
.	.	.	.	.	.	.
=96	=96	=96	=96	=96	=96	=96
*	*head:regular	*head:x	*	*	*	*
4CC#	4re	12Ree/	4r	1ryy	4r	D 
.	.	.	.	.	.	.
.	.	12ree	.	.	.	.
.	.	.	.	.	.	.
.	.	12ree	.	.	.	.
.	.	.	.	.	.	.
4CC	4re	12Ree/	12C# F G#	.	12c#	.
.	.	.	.	.	.	.
.	.	12ree	12r	.	12r	.
.	.	.	.	.	.	.
.	.	12ree	12r	.	12r	.
.	.	.	.	.	.	.
8CC#	4re	4ree	4F	.	4c# g# cc# gg#	.
.	.	.	.	.	.	.
.	.	.	.	.	.	.
8r	.	.	.	.	.	.
.	.	.	.	.	.	.
.	.	.	.	.	.	.
8FF	4re	16Ree/	4r	.	4r	.
.	.	16ree	.	.	.	.
.	.	.	.	.	.	.
8r	.	8ree	.	.	.	.
.	.	.	.	.	.	.
.	.	.	.	.	.	.
=97	=97	=97	=97	=97	=97	=97
*	*head:regular	*head:x	*	*	*	*
4BBB	4re	4ree	4r	1ryy	4r	B 
.	.	.	.	.	.	.
.	.	.	.	.	.	.
.	.	.	.	.	.	.
.	.	.	.	.	.	.
.	.	.	.	.	.	.
4AAA#	4re	16Ree/	4r	.	4r	.
.	.	16ree	.	.	.	.
.	.	.	.	.	.	.
.	.	8ree	.	.	.	.
.	.	.	.	.	.	.
.	.	.	.	.	.	.
4BBB	4re	16Ree/	6F# B	.	6d# f#	.
.	.	16ree	.	.	.	.
.	.	.	.	.	.	.
.	.	8ree	.	.	.	.
.	.	.	12r	.	12r	.
.	.	.	.	.	.	.
6FFF#	4re	16Ree/	4r	.	4r	.
.	.	16ree	.	.	.	.
.	.	.	.	.	.	.
.	.	8ree	.	.	.	.
12r	.	.	.	.	.	.
.	.	.	.	.	.	.
=98	=98	=98	=98	=98	=98	=98
*	*head:regular	*head:x	*	*	*	*
4BBB	16Rf\	16Ree/	4r	1ryy	4r	B 
.	16re	16ree	.	.	.	.
.	.	.	.	.	.	.
.	8re	8ree	.	.	.	.
.	.	.	.	.	.	.
.	.	.	.	.	.	.
4BBB	4re	16Ree/	4F# B	.	4d# f#	.
.	.	16ree	.	.	.	.
.	.	.	.	.	.	.
.	.	8ree	.	.	.	.
.	.	.	.	.	.	.
.	.	.	.	.	.	.
4BBB	4re	16Ree/	4r	.	4r	.
.	.	16ree	.	.	.	.
.	.	.	.	.	.	.
.	.	8ree	.	.	.	.
.	.	.	.	.	.	.
.	.	.	.	.	.	.
8.FF#	16Rf\	16Ree/	4r	.	4r	.
.	16re	16ree	.	.	.	.
.	.	.	.	.	.	.
.	8re	8ree	.	.	.	.
.	.	.	.	.	.	.
16r	.	.	.	.	.	.
=99	=99	=99	=99	=99	=99	=99
*	*head:regular	*head:x	*	*	*	*
8.BBB	16Rf\	16Ree/	4F# B	1ryy	4d# f#	B 
.	16re	16ree	.	.	.	.
.	.	.	.	.	.	.
.	8re	8ree	.	.	.	.
.	.	.	.	.	.	.
16r	.	.	.	.	.	.
4AAA#	4re	16Ree/	4r	.	4r	.
.	.	16ree	.	.	.	.
.	.	.	.	.	.	.
.	.	8ree	.	.	.	.
.	.	.	.	.	.	.
.	.	.	.	.	.	.
8BBB	4re	16Ree/	4r	.	4r	.
.	.	16ree	.	.	.	.
.	.	.	.	.	.	.
8r	.	8ree	.	.	.	.
.	.	.	.	.	.	.
.	.	.	.	.	.	.
4FFF#	4re	16Ree/	4r	.	4r	.
.	.	16ree	.	.	.	.
.	.	.	.	.	.	.
.	.	8ree	.	.	.	.
.	.	.	.	.	.	.
.	.	.	.	.	.	.
=100	=100	=100	=100	=100	=100	=100
*	*head:regular	*head:x	*	*	*	*
4BBB	4re	16Ree/	4r	1ryy	4r	B 
.	.	16ree	.	.	.	.
.	.	.	.	.	.	.
.	.	8ree	.	.	.	.
.	.	.	.	.	.	.
.	.	.	.	.	.	.
4BBB	4re	16Ree/	4r	.	4r	.
.	.	16ree	.	.	.	.
.	.	.	.	.	.	.
.	.	8ree	.	.	.	.
.	.	.	.	.	.	.
.	.	.	.	.	.	.
4BBB	4re	16Ree/	4r	.	4r	.
.	.	16ree	.	.	.	.
.	.	.	.	.	.	.
.	.	8ree	.	.	.	.
.	.	.	.	.	.	.
.	.	.	.	.	.	.
4FFF#	4re	16Ree/	12B	.	12d# f# b	.
.	.	16ree	.	.	.	.
.	.	.	12r	.	12r	.
.	.	8ree	.	.	.	.
.	.	.	12r	.	12r	.
.	.	.	.	.	.	.
=101	=101	=101	=101	=101	=101	=101
*	*head:regular	*head:x	*	*	*	*
4AAA#	4re	12Ree/	4r	1ryy	4r	B 
.	.	.	.	.	.	.
.	.	12ree	.	.	.	.
.	.	.	.	.	.	.
.	.	12ree	.	.	.	.
.	.	.	.	.	.	.
4DD	4re	12Ree/	4F A#	.	4d f	.
.	.	.	.	.	.	.
.	.	12ree	.	.	.	.
.	.	.	.	.	.	.
.	.	12ree	.	.	.	.
.	.	.	.	.	.	.
4DD#	4re	12Ree/	4r	.	4r	E 
.	.	.	.	.	.	.
.	.	12ree	.	.	.	.
.	.	.	.	.	.	.
.	.	12ree	.	.	.	.
.	.	.	.	.	.	.
6AAA#	4re	12Ree/	4r	.	4r	.
.	.	.	.	.	.	.
.	.	12ree	.	.	.	.
.	.	.	.	.	.	.
12r	.	12ree	.	.	.	.
.	.	.	.	.	.	.
=102	=102	=102	=102	=102	=102	=102
*	*head:regular	*head:x	*	*	*	*
4D#	4re	12Ree/	4r	1ryy	4r	A 
.	.	.	.	.	.	.
.	.	12ree	.	.	.	.
.	.	.	.	.	.	.
.	.	12ree	.	.	.	.
.	.	.	.	.	.	.
4GG#	4re	12Ree/	4r	.	4r	.
.	.	.	.	.	.	.
.	.	12ree	.	.	.	.
.	.	.	.	.	.	.
.	.	12ree	.	.	.	.
.	.	.	.	.	.	.
4CC#	4re	12Ree/	6C# F G#	.	6c#	D 
.	.	.	.	.	.	.
.	.	12ree	.	.	.	.
.	.	.	.	.	.	.
.	.	12ree	12r	.	12r	.
.	.	.	.	.	.	.
8.GGG#	4re	12Ree/	4r	.	4r	.
.	.	.	.	.	.	.
.	.	12ree	.	.	.	.
.	.	.	.	.	.	.
.	.	12ree	.	.	.	.
16r	.	.	.	.	.	.
=103	=103	=103	=103	=103	=103	=103
*	*head:regular	*head:x	*	*	*	*
8.DD	4re	12Ree/	4F# A	1ryy	4d a	D 
.	.	.	.	.	.	.
.	.	12ree	.	.	.	.
.	.	.	.	.	.	.
.	.	12ree	.	.	.	.
16r	.	.	.	.	.	.
4FF#	4re	12Ree/	4r	.	4r	.
.	.	.	.	.	.	.
.	.	12ree	.	.	.	.
.	.	.	.	.	.	.
.	.	12ree	.	.	.	.
.	.	.	.	.	.	.
8DD#	4re	12Ree/	4r	.	4r	E 
.	.	.	.	.	.	.
.	.	12ree	.	.	.	.
8r	.	.	.	.	.	.
.	.	12ree	.	.	.	.
.	.	.	.	.	.	.
4AAA	4re	12Ree/	4r	.	4r	D 
.	.	.	.	.	.	.
.	.	12ree	.	.	.	.
.	.	.	.	.	.	.
.	.	12ree	.	.	.	.
.	.	.	.	.	.	.
=104	=104	=104	=104	=104	=104	=104
*	*head:regular	*head:x	*	*	*	*
4CC#	4re	12Ree/	4r	1ryy	4r	D 
.	.	.	.	.	.	.
.	.	12ree	.	.	.	.
.	.	.	.	.	.	.
.	.	12ree	.	.	.	.
.	.	.	.	.	.	.
4GGG#	4re	12Ree/	6C# F G#	.	6c#	.
.	.	.	.	.	.	.
.	.	12ree	.	.	.	.
.	.	.	.	.	.	.
.	.	12ree	12r	.	12r	.
.	.	.	.	.	.	.
8FFF	4re	4ree	4C# F G#	.	4c#	.
.	.	.	.	.	.	.
.	.	.	.	.	.	.
8r	.	.	.	.	.	.
.	.	.	.	.	.	.
.	.	.	.	.	.	.
8GGG#	4re	16Ree/	4r	.	4r	.
.	.	16ree	.	.	.	.
.	.	.	.	.	.	.
8r	.	8ree	.	.	.	.
.	.	.	.	.	.	.
.	.	.	.	.	.	.
=105	=105	=105	=105	=105	=105	=105
*	*head:regular	*head:x	*	*	*	*
4BBB	4re	4ree	4r	1ryy	4r	B 
.	.	.	.	.	.	.
.	.	.	.	.	.	.
.	.	.	.	.	.	.
.	.	.	.	.	.	.
.	.	.	.	.	.	.
8.AAA#	4re	12Ree/	4r	.	4r	.
.	.	.	.	.	.	.
.	.	12ree	.	.	.	.
.	.	.	.	.	.	.
.	.	12ree	.	.	.	.
16r	.	.	.	.	.	.
6BBB	4re	12Ree/	4r	.	4r	.
.	.	.	.	.	.	.
.	.	12ree	.	.	.	.
.	.	.	.	.	.	.
12r	.	12ree	.	.	.	.
.	.	.	.	.	.	.
4FFF#	4re	12Ree/	4r	.	4r	.
.	.	.	.	.	.	.
.	.	12ree	.	.	.	.
.	.	.	.	.	.	.
.	.	12ree	.	.	.	.
.	.	.	.	.	.	.
=106	=106	=106	=106	=106	=106	=106
*	*head:regular	*head:x	*	*	*	*
4BBB	4re	12Ree/	4r	1ryy	4r	B 
.	.	.	.	.	.	.
.	.	12ree	.	.	.	.
.	.	.	.	.	.	.
.	.	12ree	.	.	.	.
.	.	.	.	.	.	.
4DD#	4re	16Ree/	4r	.	4r	.
.	.	16ree	.	.	.	.
.	.	.	.	.	.	.
.	.	8ree	.	.	.	.
.	.	.	.	.	.	.
.	.	.	.	.	.	.
4DD#	4re	12Ree/	6D# F# B	.	6f#	.
.	.	.	.	.	.	.
.	.	12ree	.	.	.	.
.	.	.	.	.	.	.
.	.	12ree	12r	.	12r	.
.	.	.	.	.	.	.
8.CC	4re	12Ree/	4r	.	4r	.
.	.	.	.	.	.	.
.	.	12ree	.	.	.	.
.	.	.	.	.	.	.
.	.	12ree	.	.	.	.
16r	.	.	.	.	.	.
=107	=107	=107	=107	=107	=107	=107
*	*head:regular	*head:x	*	*	*	*
8BBB	4re	12Ree/	4r	1ryy	4r	B 
.	.	.	.	.	.	.
.	.	12ree	.	.	.	.
8r	.	.	.	.	.	.
.	.	12ree	.	.	.	.
.	.	.	.	.	.	.
4BBB	4re	12Ree/	4r	.	4r	.
.	.	.	.	.	.	.
.	.	12ree	.	.	.	.
.	.	.	.	.	.	.
.	.	12ree	.	.	.	.
.	.	.	.	.	.	.
4BBB	4re	12Ree/	4r	.	4r	.
.	.	.	.	.	.	.
.	.	12ree	.	.	.	.
.	.	.	.	.	.	.
.	.	12ree	.	.	.	.
.	.	.	.	.	.	.
4DD#	4re	16Ree/	4r	.	4r	.
.	.	16ree	.	.	.	.
.	.	.	.	.	.	.
.	.	8ree	.	.	.	.
.	.	.	.	.	.	.
.	.	.	.	.	.	.
=108	=108	=108	=108	=108	=108	=108
*	*head:regular	*head:x	*	*	*	*
4FF#	4re	12Ree/	6F# B	1ryy	6d# f#	B 
.	.	.	.	.	.	.
.	.	12ree	.	.	.	.
.	.	.	.	.	.	.
.	.	12ree	12r	.	12r	.
.	.	.	.	.	.	.
4BB	4re	12Ree/	12D# F# B	.	12f#	.
.	.	.	.	.	.	.
.	.	12ree	12r	.	12r	.
.	.	.	.	.	.	.
.	.	12ree	12r	.	12r	.
.	.	.	.	.	.	.
4BBB	4re	12Ree/	4r	.	4r	.
.	.	.	.	.	.	.
.	.	12ree	.	.	.	.
.	.	.	.	.	.	.
.	.	12ree	.	.	.	.
.	.	.	.	.	.	.
4FFF#	4re	12Ree/	4r	.	4r	.
.	.	.	.	.	.	.
.	.	12ree	.	.	.	.
.	.	.	.	.	.	.
.	.	12ree	.	.	.	.
.	.	.	.	.	.	.
=109	=109	=109	=109	=109	=109	=109
*	*head:regular	*head:x	*	*	*	*
6AAA#	4re	16Ree/	4r	1ryy	4r	B 
.	.	16ree	.	.	.	.
.	.	.	.	.	.	.
.	.	8ree	.	.	.	.
12r	.	.	.	.	.	.
.	.	.	.	.	.	.
4FF	4re	16Ree/	4r	.	4r	.
.	.	16ree	.	.	.	.
.	.	.	.	.	.	.
.	.	8ree	.	.	.	.
.	.	.	.	.	.	.
.	.	.	.	.	.	.
4GGG	16Rf\	16Ree/	4r	.	4r	E 
.	16re	16ree	.	.	.	.
.	.	.	.	.	.	.
.	8re	8ree	.	.	.	.
.	.	.	.	.	.	.
.	.	.	.	.	.	.
4AAA#	4re	16Ree/	4r	.	4r	.
.	.	16ree	.	.	.	.
.	.	.	.	.	.	.
.	.	8ree	.	.	.	.
.	.	.	.	.	.	.
.	.	.	.	.	.	.
=110	=110	=110	=110	=110	=110	=110
*	*head:regular	*head:x	*	*	*	*
4GGG#	4re	16Ree/	4r	1ryy	4r	A 
.	.	16ree	.	.	.	.
.	.	.	.	.	.	.
.	.	8ree	.	.	.	.
.	.	.	.	.	.	.
.	.	.	.	.	.	.
4CC	4re	16Ree/	12G#	.	12c d# g#	.
.	.	16ree	.	.	.	.
.	.	.	12r	.	12r	.
.	.	8ree	.	.	.	.
.	.	.	12r	.	12r	.
.	.	.	.	.	.	.
4CC#	4re	16Ree/	4F G#	.	4c# g#	D 
.	.	16ree	.	.	.	.
.	.	.	.	.	.	.
.	.	8ree	.	.	.	.
.	.	.	.	.	.	.
.	.	.	.	.	.	.
4C#	4re	16Ree/	4r	.	4r	.
.	.	16ree	.	.	.	.
.	.	.	.	.	.	.
.	.	8ree	.	.	.	.
.	.	.	.	.	.	.
.	.	.	.	.	.	.
=111	=111	=111	=111	=111	=111	=111
*	*head:regular	*head:x	*	*	*	*
4D	4re	16Ree/	4r	1ryy	4r	D 
.	.	16ree	.	.	.	.
.	.	.	.	.	.	.
.	.	8ree	.	.	.	.
.	.	.	.	.	.	.
.	.	.	.	.	.	.
6AA	4re	16Ree/	4r	.	4r	.
.	.	16ree	.	.	.	.
.	.	.	.	.	.	.
.	.	8ree	.	.	.	.
12r	.	.	.	.	.	.
.	.	.	.	.	.	.
4GG	4re	16Ree/	4r	.	4r	E 
.	.	16ree	.	.	.	.
.	.	.	.	.	.	.
.	.	8ree	.	.	.	.
.	.	.	.	.	.	.
.	.	.	.	.	.	.
4AA	4re	16Ree/	4r	.	4r	D 
.	.	16ree	.	.	.	.
.	.	.	.	.	.	.
.	.	8ree	.	.	.	.
.	.	.	.	.	.	.
.	.	.	.	.	.	.
=112	=112	=112	=112	=112	=112	=112
*	*head:regular	*head:x	*	*	*	*
4CC#	4re	16Ree/	4r	1ryy	4r	D 
.	.	16ree	.	.	.	.
.	.	.	.	.	.	.
.	.	8ree	.	.	.	.
.	.	.	.	.	.	.
.	.	.	.	.	.	.
4GGG#	16Rf\	16Ree/	12F G#	.	12c# g#	.
.	16re	16ree	.	.	.	.
.	.	.	12r	.	12r	.
.	8re	8ree	.	.	.	.
.	.	.	12r	.	12r	.
.	.	.	.	.	.	.
8CC#	4re	16Ree/	4F G#	.	4c# g#	.
.	.	16ree	.	.	.	.
.	.	.	.	.	.	.
8r	.	8ree	.	.	.	.
.	.	.	.	.	.	.
.	.	.	.	.	.	.
8GG#	4re	16Ree/	4r	.	4r	.
.	.	16ree	.	.	.	.
.	.	.	.	.	.	.
8r	.	8ree	.	.	.	.
.	.	.	.	.	.	.
.	.	.	.	.	.	.
=113	=113	=113	=113	=113	=113	=113
*	*head:regular	*head:x	*	*	*	*
4DD#	4re	4ree	4r	1ryy	4r	E a
.	.	.	.	.	.	.
.	.	.	.	.	.	.
.	.	.	.	.	.	.
.	.	.	.	.	.	.
.	.	.	.	.	.	.
4AAA#	4re	16Ree/	4r	.	4r	.
.	.	16ree	.	.	.	.
.	.	.	.	.	.	.
.	.	8ree	.	.	.	.
.	.	.	.	.	.	.
.	.	.	.	.	.	.
4GGG#	4re	4ree	4r	.	4r	A @
.	.	.	.	.	.	.
.	.	.	.	.	.	.
.	.	.	.	.	.	.
.	.	.	.	.	.	.
.	.	.	.	.	.	.
4CC	4re	16Ree/	4r	.	4r	.
.	.	16ree	.	.	.	.
.	.	.	.	.	.	.
.	.	8ree	.	.	.	.
.	.	.	.	.	.	.
.	.	.	.	.	.	.
=114	=114	=114	=114	=114	=114	=114
*	*head:regular	*head:x	*	*	*	*
4CC#	12Rf\	4ree	4r	1ryy	4r	D 
.	.	.	.	.	.	.
.	12re	.	.	.	.	.
.	.	.	.	.	.	.
.	12re	.	.	.	.	.
.	.	.	.	.	.	.
4CC	4re	16Ree/	4r	.	4r	.
.	.	16ree	.	.	.	.
.	.	.	.	.	.	.
.	.	8ree	.	.	.	.
.	.	.	.	.	.	.
.	.	.	.	.	.	.
4CC#	4re	4ree	4F G#	.	4c# g#	.
.	.	.	.	.	.	.
.	.	.	.	.	.	.
.	.	.	.	.	.	.
.	.	.	.	.	.	.
.	.	.	.	.	.	.
4GG#	4re	16Ree/	4r	.	4r	.
.	.	16ree	.	.	.	.
.	.	.	.	.	.	.
.	.	8ree	.	.	.	.
.	.	.	.	.	.	.
.	.	.	.	.	.	.
=115	=115	=115	=115	=115	=115	=115
*	*head:regular	*head:x	*	*	*	*
4EEE	4re	4ree	4r	1ryy	4r	E a
.	.	.	.	.	.	.
.	.	.	.	.	.	.
.	.	.	.	.	.	.
.	.	.	.	.	.	.
.	.	.	.	.	.	.
4GGG#	4re	16Ree/	4r	.	4r	.
.	.	16ree	.	.	.	.
.	.	.	.	.	.	.
.	.	8ree	.	.	.	.
.	.	.	.	.	.	.
.	.	.	.	.	.	.
4AAA	4re	4ree	4E A	.	4c# e	A 
.	.	.	.	.	.	.
.	.	.	.	.	.	.
.	.	.	.	.	.	.
.	.	.	.	.	.	.
.	.	.	.	.	.	.
4CC#	4re	16Ree/	4r	.	4r	.
.	.	16ree	.	.	.	.
.	.	.	.	.	.	.
.	.	8ree	.	.	.	.
.	.	.	.	.	.	.
.	.	.	.	.	.	.
=116	=116	=116	=116	=116	=116	=116
*	*head:regular	*head:x	*	*	*	*
4DD	4re	4ree	4r	1ryy	4r	D 
.	.	.	.	.	.	.
.	.	.	.	.	.	.
.	.	.	.	.	.	.
.	.	.	.	.	.	.
.	.	.	.	.	.	.
4AAA	4re	16Ree/	4r	.	4r	.
.	.	16ree	.	.	.	.
.	.	.	.	.	.	.
.	.	8ree	.	.	.	.
.	.	.	.	.	.	.
.	.	.	.	.	.	.
4DD	4re	4ree	4r	.	4r	.
.	.	.	.	.	.	.
.	.	.	.	.	.	.
.	.	.	.	.	.	.
.	.	.	.	.	.	.
.	.	.	.	.	.	.
4FF#	4re	16Ree/	4D F# A	.	4d	.
.	.	16ree	.	.	.	.
.	.	.	.	.	.	.
.	.	8ree	.	.	.	.
.	.	.	.	.	.	.
.	.	.	.	.	.	.
=117	=117	=117	=117	=117	=117	=117
*	*head:regular	*head:x	*	*	*	*
6GG#	4re	4ree	4r	1ryy	4r	G+ >
.	.	.	.	.	.	.
.	.	.	.	.	.	.
.	.	.	.	.	.	.
12r	.	.	.	.	.	.
.	.	.	.	.	.	.
4DD	4re	16Ree/	4r	.	4r	.
.	.	16ree	.	.	.	.
.	.	.	.	.	.	.
.	.	8ree	.	.	.	.
.	.	.	.	.	.	.
.	.	.	.	.	.	.
4CC#	4re	4ree	4C# F A	.	4c#	C+ @
.	.	.	.	.	.	.
.	.	.	.	.	.	.
.	.	.	.	.	.	.
.	.	.	.	.	.	.
.	.	.	.	.	.	.
4AAA	4re	16Ree/	4r	.	4r	.
.	.	16ree	.	.	.	.
.	.	.	.	.	.	.
.	.	8ree	.	.	.	.
.	.	.	.	.	.	.
.	.	.	.	.	.	.
=118	=118	=118	=118	=118	=118	=118
*	*head:regular	*head:x	*	*	*	*
4DD	4re	4ree	4r	1ryy	4r	D 
.	.	.	.	.	.	.
.	.	.	.	.	.	.
.	.	.	.	.	.	.
.	.	.	.	.	.	.
.	.	.	.	.	.	.
4AAA#	12Rf\	16Ree/	4r	.	4r	.
.	.	16ree	.	.	.	.
.	12re	.	.	.	.	.
.	.	8ree	.	.	.	.
.	12re	.	.	.	.	.
.	.	.	.	.	.	.
4AAA	4re	4ree	4r	.	6d f# a dd	.
.	.	.	.	.	.	.
.	.	.	.	.	.	.
.	.	.	.	.	.	.
.	.	.	.	.	12r	.
.	.	.	.	.	.	.
4AAA	4re	16Ree/	4r	.	4r	.
.	.	16ree	.	.	.	.
.	.	.	.	.	.	.
.	.	8ree	.	.	.	.
.	.	.	.	.	.	.
.	.	.	.	.	.	.
=119	=119	=119	=119	=119	=119	=119
*	*head:regular	*head:x	*	*	*	*
4GGG#	4re	4ree	4r	1ryy	4r	A 
.	.	.	.	.	.	.
.	.	.	.	.	.	.
.	.	.	.	.	.	.
.	.	.	.	.	.	.
.	.	.	.	.	.	.
6DD#	4re	16Ree/	4r	.	4r	.
.	.	16ree	.	.	.	.
.	.	.	.	.	.	.
.	.	8ree	.	.	.	.
12r	.	.	.	.	.	.
.	.	.	.	.	.	.
4GG	4re	4ree	4B	.	4d g dd	G 
.	.	.	.	.	.	.
.	.	.	.	.	.	.
.	.	.	.	.	.	.
.	.	.	.	.	.	.
.	.	.	.	.	.	.
4GG	4re	16Ree/	4r	.	4r	.
.	.	16ree	.	.	.	.
.	.	.	.	.	.	.
.	.	8ree	.	.	.	.
.	.	.	.	.	.	.
.	.	.	.	.	.	.
=120	=120	=120	=120	=120	=120	=120
*	*head:regular	*head:x	*	*	*	*
4FF#	4re	4ree	4r	1ryy	4r	G 
.	.	.	.	.	.	.
.	.	.	.	.	.	.
.	.	.	.	.	.	.
.	.	.	.	.	.	.
.	.	.	.	.	.	.
4GG#	4re	16Ree/	4C# F# A#	.	4c#	.
.	.	16ree	.	.	.	.
.	.	.	.	.	.	.
.	.	8ree	.	.	.	.
.	.	.	.	.	.	.
.	.	.	.	.	.	.
8GG#	4re	4ree	4D# G#	.	4c d#	A 
.	.	.	.	.	.	.
.	.	.	.	.	.	.
8r	.	.	.	.	.	.
.	.	.	.	.	.	.
.	.	.	.	.	.	.
4r	4re	16Ree/	4r	.	4r	.
.	.	16ree	.	.	.	.
.	.	.	.	.	.	.
.	.	8ree	.	.	.	.
.	.	.	.	.	.	.
.	.	.	.	.	.	.
=121	=121	=121	=121	=121	=121	=121
*	*head:regular	*head:x	*	*	*	*
4BBB	4re	4ree	4r	1ryy	4r	B 
.	.	.	.	.	.	.
.	.	.	.	.	.	.
.	.	.	.	.	.	.
.	.	.	.	.	.	.
.	.	.	.	.	.	.
4AAA#	4re	12Ree/	4r	.	4r	.
.	.	.	.	.	.	.
.	.	12ree	.	.	.	.
.	.	.	.	.	.	.
.	.	12ree	.	.	.	.
.	.	.	.	.	.	.
6BBB	12Rf\	12Ree/	4r	.	4r	.
.	.	.	.	.	.	.
.	12re	12ree	.	.	.	.
.	.	.	.	.	.	.
12r	12re	12ree	.	.	.	.
.	.	.	.	.	.	.
4FFF#	4re	12Ree/	4r	.	4r	.
.	.	.	.	.	.	.
.	.	12ree	.	.	.	.
.	.	.	.	.	.	.
.	.	12ree	.	.	.	.
.	.	.	.	.	.	.
=122	=122	=122	=122	=122	=122	=122
*	*head:regular	*head:x	*	*	*	*
4BBB	12Rf\	12Ree/	4r	1ryy	4r	B 
.	.	.	.	.	.	.
.	12re	12ree	.	.	.	.
.	.	.	.	.	.	.
.	12re	12ree	.	.	.	.
.	.	.	.	.	.	.
4AAA#	4re	16Ree/	4r	.	4r	.
.	.	16ree	.	.	.	.
.	.	.	.	.	.	.
.	.	8ree	.	.	.	.
.	.	.	.	.	.	.
.	.	.	.	.	.	.
4BBB	4re	12Ree/	6F# B	.	6d# f#	.
.	.	.	.	.	.	.
.	.	12ree	.	.	.	.
.	.	.	.	.	.	.
.	.	12ree	12r	.	12r	.
.	.	.	.	.	.	.
8.FF#	4re	12Ree/	4F# B	.	4d# f#	.
.	.	.	.	.	.	.
.	.	12ree	.	.	.	.
.	.	.	.	.	.	.
.	.	12ree	.	.	.	.
16r	.	.	.	.	.	.
=123	=123	=123	=123	=123	=123	=123
*	*head:regular	*head:x	*	*	*	*
8BBB	4re	16Ree/	4r	1ryy	4r	B 
.	.	16ree	.	.	.	.
.	.	.	.	.	.	.
8r	.	8ree	.	.	.	.
.	.	.	.	.	.	.
.	.	.	.	.	.	.
8.FF#	4re	12Ree/	4r	.	4r	.
.	.	.	.	.	.	.
.	.	12ree	.	.	.	.
.	.	.	.	.	.	.
.	.	12ree	.	.	.	.
16r	.	.	.	.	.	.
4BBB	4re	12Ree/	4F# B	.	4d# b ff# bb	.
.	.	.	.	.	.	.
.	.	12ree	.	.	.	.
.	.	.	.	.	.	.
.	.	12ree	.	.	.	.
.	.	.	.	.	.	.
4GGG	4re	12Ree/	4r	.	4r	.
.	.	.	.	.	.	.
.	.	12ree	.	.	.	.
.	.	.	.	.	.	.
.	.	12ree	.	.	.	.
.	.	.	.	.	.	.
=124	=124	=124	=124	=124	=124	=124
*	*head:regular	*head:x	*	*	*	*
4FFF#	4re	12Ree/	4r	1ryy	4r	B 
.	.	.	.	.	.	.
.	.	12ree	.	.	.	.
.	.	.	.	.	.	.
.	.	12ree	.	.	.	.
.	.	.	.	.	.	.
4BBB	4re	12Ree/	12F# B	.	12d# b ff# bb	.
.	.	.	.	.	.	.
.	.	12ree	12r	.	12r	.
.	.	.	.	.	.	.
.	.	12ree	12r	.	12r	.
.	.	.	.	.	.	.
4BBB	4re	12Ree/	6F# B	.	6d# b ff# bb	.
.	.	.	.	.	.	.
.	.	12ree	.	.	.	.
.	.	.	.	.	.	.
.	.	12ree	12r	.	12r	.
.	.	.	.	.	.	.
4FFF#	4re	12Ree/	4F# B	.	4d# b ff# bb	.
.	.	.	.	.	.	.
.	.	12ree	.	.	.	.
.	.	.	.	.	.	.
.	.	12ree	.	.	.	.
.	.	.	.	.	.	.
=125	=125	=125	=125	=125	=125	=125
*	*head:regular	*head:x	*	*	*	*
6AAA#	4re	12Ree/	12F A#	1ryy	12d f	B 
.	.	.	.	.	.	.
.	.	12ree	12r	.	12r	.
.	.	.	.	.	.	.
12r	.	12ree	12r	.	12r	.
.	.	.	.	.	.	.
8.DD	4re	16Ree/	4r	.	4r	.
.	.	16ree	.	.	.	.
.	.	.	.	.	.	.
.	.	8ree	.	.	.	.
.	.	.	.	.	.	.
16r	.	.	.	.	.	.
4DD#	4re	12Ree/	4r	.	4r	E 
.	.	.	.	.	.	.
.	.	12ree	.	.	.	.
.	.	.	.	.	.	.
.	.	12ree	.	.	.	.
.	.	.	.	.	.	.
4GG	12Rf\	16Ree/	4r	.	4r	.
.	.	16ree	.	.	.	.
.	12re	.	.	.	.	.
.	.	8ree	.	.	.	.
.	12re	.	.	.	.	.
.	.	.	.	.	.	.
=126	=126	=126	=126	=126	=126	=126
*	*head:regular	*head:x	*	*	*	*
8GG#	4re	12Ree/	6C D# G#	1ryy	6d#	A 
.	.	.	.	.	.	.
.	.	12ree	.	.	.	.
8r	.	.	.	.	.	.
.	.	12ree	12r	.	12r	.
.	.	.	.	.	.	.
4DD#	4re	12Ree/	4r	.	4r	.
.	.	.	.	.	.	.
.	.	12ree	.	.	.	.
.	.	.	.	.	.	.
.	.	12ree	.	.	.	.
.	.	.	.	.	.	.
4CC#	4re	12Ree/	4r	.	4r	D 
.	.	.	.	.	.	.
.	.	12ree	.	.	.	.
.	.	.	.	.	.	.
.	.	12ree	.	.	.	.
.	.	.	.	.	.	.
6DD	4re	12Ree/	4r	.	4r	.
.	.	.	.	.	.	.
.	.	12ree	.	.	.	.
.	.	.	.	.	.	.
12r	.	12ree	.	.	.	.
.	.	.	.	.	.	.
=127	=127	=127	=127	=127	=127	=127
*	*head:regular	*head:x	*	*	*	*
4DD	4re	12Ree/	4r	1ryy	4r	D 
.	.	.	.	.	.	.
.	.	12ree	.	.	.	.
.	.	.	.	.	.	.
.	.	12ree	.	.	.	.
.	.	.	.	.	.	.
4AAA	4re	12Ree/	4r	.	4r	.
.	.	.	.	.	.	.
.	.	12ree	.	.	.	.
.	.	.	.	.	.	.
.	.	12ree	.	.	.	.
.	.	.	.	.	.	.
4DD#	4re	12Ree/	4r	.	4r	E 
.	.	.	.	.	.	.
.	.	12ree	.	.	.	.
.	.	.	.	.	.	.
.	.	12ree	.	.	.	.
.	.	.	.	.	.	.
4AAA	4re	12Ree/	4r	.	4r	D 
.	.	.	.	.	.	.
.	.	12ree	.	.	.	.
.	.	.	.	.	.	.
.	.	12ree	.	.	.	.
.	.	.	.	.	.	.
==	==	==	==	==	==	==
*-	*-	*-	*-	*-	*-	*-
!!!system-decoration: {(s1,s2)}s3,s4e